;FLAVOR:Marlin
;TIME:3496
;Filament used: 1.69917m
;Layer height: 0.2
;MINX:97.165
;MINY:81.1
;MINZ:0.2
;MAXX:137.835
;MAXY:153.9
;MAXZ:16
;POSTPROCESSED
;Generated with Cura_SteamEngine main
M140 S35
M105
M190 S35
M104 S200
M105
M109 S200
M82 ;absolute extrusion mode
; Ender 3 Custom Start G-code
G92 E0 ; Reset Extruder
G28 ; Home all axes
G1 Z2.0 F3000 ; Move Z Axis up little to prevent scratching of Heat Bed
G1 X0.1 Y20 Z0.3 F5000.0 ; Move to start position
G1 X0.1 Y200.0 Z0.3 F1500.0 E15 ; Draw the first line
G1 X0.4 Y200.0 Z0.3 F5000.0 ; Move to side a little
G1 X0.4 Y20 Z0.3 F1500.0 E30 ; Draw the second line
G92 E0 ; Reset Extruder
G1 Z2.0 F3000 ; Move Z Axis up little to prevent scratching of Heat Bed
G1 X5 Y20 Z0.3 F5000.0 ; Move over to prevent blob squish
G92 E0
G92 E0
G1 F2700 E-5
;LAYER_COUNT:80
;LAYER:0
M107
G0 F6000 X99.731 Y85.058 Z0.2
G0 X97.166 Y92.625
;TYPE:SKIRT
G1 F2700 E0
G1 F1200 X97.175 Y91.96 E0.02212
G1 X97.228 Y91.024 E0.0533
G1 X97.36 Y90.095 E0.08451
G1 X97.571 Y89.181 E0.11571
G1 X97.859 Y88.289 E0.14689
G1 X98.222 Y87.424 E0.17809
G1 X98.657 Y86.593 E0.20928
G1 X99.161 Y85.803 E0.24045
G1 X99.731 Y85.058 E0.27165
G1 X100.363 Y84.364 E0.30287
G1 X101.051 Y83.727 E0.33405
G1 X101.791 Y83.151 E0.36524
G1 X102.577 Y82.639 E0.39644
G1 X103.404 Y82.197 E0.42763
G1 X104.266 Y81.827 E0.45883
G1 X105.156 Y81.531 E0.49003
G1 X106.068 Y81.313 E0.52122
G1 X106.995 Y81.172 E0.5524
G1 X107.866 Y81.113 E0.58144
G1 X108.495 Y81.1 E0.60236
G1 X126.286 Y81.101 E1.19409
G1 X126.984 Y81.111 E1.21731
G1 X127.92 Y81.165 E1.2485
G1 X128.848 Y81.297 E1.27967
G1 X129.762 Y81.509 E1.31088
G1 X130.654 Y81.798 E1.34207
G1 X131.519 Y82.161 E1.37327
G1 X132.349 Y82.597 E1.40445
G1 X133.14 Y83.102 E1.43566
G1 X133.884 Y83.673 E1.46686
G1 X134.577 Y84.305 E1.49805
G1 X135.214 Y84.993 E1.52924
G1 X135.789 Y85.734 E1.56043
G1 X136.3 Y86.52 E1.59161
G1 X136.742 Y87.348 E1.62283
G1 X137.111 Y88.21 E1.65402
G1 X137.406 Y89.1 E1.6852
G1 X137.624 Y90.012 E1.71639
G1 X137.764 Y90.94 E1.7476
G1 X137.822 Y91.801 E1.77631
G1 X137.835 Y92.43 E1.79723
G1 X137.834 Y142.3 E3.45591
G1 X137.825 Y143.027 E3.4801
G1 X137.774 Y143.964 E3.51131
G1 X137.642 Y144.892 E3.54248
G1 X137.433 Y145.806 E3.57367
G1 X137.146 Y146.699 E3.60487
G1 X136.784 Y147.565 E3.63608
G1 X136.35 Y148.396 E3.66727
G1 X135.846 Y149.187 E3.69846
G1 X135.277 Y149.932 E3.72964
G1 X134.646 Y150.627 E3.76086
G1 X133.959 Y151.265 E3.79204
G1 X133.22 Y151.842 E3.82323
G1 X132.434 Y152.354 E3.85443
G1 X131.608 Y152.797 E3.8856
G1 X130.746 Y153.169 E3.91683
G1 X129.857 Y153.465 E3.94799
G1 X128.945 Y153.685 E3.9792
G1 X128.018 Y153.826 E4.01038
G1 X127.134 Y153.887 E4.03986
G1 X126.505 Y153.9 E4.06078
G1 X108.73 Y153.899 E4.65198
G1 X108.032 Y153.89 E4.6752
G1 X107.096 Y153.838 E4.70638
G1 X106.167 Y153.706 E4.73759
G1 X105.253 Y153.496 E4.76878
G1 X104.36 Y153.209 E4.79997
G1 X103.495 Y152.846 E4.83118
G1 X102.664 Y152.412 E4.86236
G1 X101.873 Y151.908 E4.89355
G1 X101.128 Y151.338 E4.92475
G1 X100.434 Y150.707 E4.95595
G1 X99.797 Y150.02 E4.98711
G1 X99.22 Y149.28 E5.01832
G1 X98.708 Y148.494 E5.04952
G1 X98.265 Y147.667 E5.08072
G1 X97.894 Y146.806 E5.11191
G1 X97.598 Y145.916 E5.1431
G1 X97.379 Y145.004 E5.1743
G1 X97.238 Y144.077 E5.20548
G1 X97.178 Y143.188 E5.23512
G1 X97.165 Y142.558 E5.25608
G1 X97.166 Y132.438 E5.59267
G1 X97.177 Y131.72 E5.61655
G1 X97.266 Y130.488 E5.65764
G1 X97.498 Y128.74 E5.71629
G1 X97.778 Y126.26 E5.79929
G1 X97.992 Y123.736 E5.88354
G1 X98.135 Y121.214 E5.96756
G1 X98.205 Y118.695 E6.05138
G1 X98.203 Y116.171 E6.13532
G1 X98.132 Y113.681 E6.21818
G1 X97.987 Y111.149 E6.30253
G1 X97.776 Y108.665 E6.38544
G1 X97.482 Y106.095 E6.47148
G1 X97.275 Y104.574 E6.52254
G1 X97.178 Y103.399 E6.56175
G1 X97.165 Y102.77 E6.58267
G1 X97.166 Y92.625 E6.9201
G0 F6000 X97.566 Y92.631
G1 F1200 X97.575 Y91.966 E6.94222
G1 X97.627 Y91.046 E6.97287
G1 X97.759 Y90.135 E7.00348
G1 X97.97 Y89.239 E7.0341
G1 X98.257 Y88.364 E7.06473
G1 X98.62 Y87.518 E7.09535
G1 X99.054 Y86.706 E7.12597
G1 X99.557 Y85.935 E7.15659
G1 X100.126 Y85.211 E7.18721
G1 X100.754 Y84.539 E7.21781
G1 X101.439 Y83.923 E7.24845
G1 X102.175 Y83.37 E7.27907
G1 X102.956 Y82.882 E7.3097
G1 X103.776 Y82.464 E7.34031
G1 X104.63 Y82.119 E7.37094
G1 X105.51 Y81.849 E7.40156
G1 X106.41 Y81.657 E7.43217
G1 X107.324 Y81.543 E7.4628
G1 X107.877 Y81.513 E7.48122
G1 X108.495 Y81.5 E7.50178
G1 X126.128 Y81.5 E8.08826
G1 X126.978 Y81.511 E8.11653
G1 X127.897 Y81.564 E8.14715
G1 X128.808 Y81.697 E8.17777
G1 X129.704 Y81.908 E8.20838
G1 X130.578 Y82.196 E8.23899
G1 X131.425 Y82.559 E8.26964
G1 X132.236 Y82.994 E8.30025
G1 X133.006 Y83.498 E8.33086
G1 X133.73 Y84.067 E8.36149
G1 X134.402 Y84.697 E8.39212
G1 X135.017 Y85.382 E8.42274
G1 X135.57 Y86.118 E8.45336
G1 X136.057 Y86.899 E8.48397
G1 X136.474 Y87.72 E8.5146
G1 X136.819 Y88.574 E8.54523
G1 X137.088 Y89.454 E8.57584
G1 X137.28 Y90.355 E8.60648
G1 X137.393 Y91.268 E8.63708
G1 X137.422 Y91.812 E8.6552
G1 X137.435 Y92.43 E8.67576
G1 X137.434 Y142.295 E10.33427
G1 X137.425 Y143.022 E10.35846
G1 X137.374 Y143.941 E10.38907
G1 X137.243 Y144.853 E10.41971
G1 X137.033 Y145.749 E10.45032
G1 X136.747 Y146.624 E10.48094
G1 X136.386 Y147.471 E10.51156
G1 X135.952 Y148.283 E10.54219
G1 X135.45 Y149.055 E10.57281
G1 X134.882 Y149.78 E10.60345
G1 X134.254 Y150.453 E10.63406
G1 X133.57 Y151.069 E10.66468
G1 X132.835 Y151.623 E10.69529
G1 X132.055 Y152.112 E10.72591
G1 X131.235 Y152.531 E10.75654
G1 X130.382 Y152.877 E10.78715
G1 X129.502 Y153.148 E10.81778
G1 X128.602 Y153.341 E10.84839
G1 X127.688 Y153.456 E10.87903
G1 X127.123 Y153.487 E10.89785
G1 X126.505 Y153.5 E10.91841
G1 X108.735 Y153.499 E11.50945
G1 X108.037 Y153.49 E11.53266
G1 X107.118 Y153.438 E11.56328
G1 X106.207 Y153.307 E11.59389
G1 X105.311 Y153.097 E11.6245
G1 X104.436 Y152.81 E11.65513
G1 X103.589 Y152.448 E11.68576
G1 X102.777 Y152.014 E11.71639
G1 X102.006 Y151.512 E11.74699
G1 X101.281 Y150.944 E11.77762
G1 X100.608 Y150.315 E11.80826
G1 X99.993 Y149.631 E11.83885
G1 X99.439 Y148.896 E11.86946
G1 X98.951 Y148.115 E11.90009
G1 X98.532 Y147.295 E11.93072
G1 X98.186 Y146.442 E11.96134
G1 X97.916 Y145.562 E11.99195
G1 X97.723 Y144.661 E12.0226
G1 X97.609 Y143.748 E12.0532
G1 X97.578 Y143.177 E12.07222
G1 X97.565 Y142.558 E12.09281
G1 X97.566 Y132.445 E12.42917
G1 X97.577 Y131.727 E12.45306
G1 X97.662 Y130.539 E12.49267
G1 X97.803 Y129.441 E12.52949
G1 X97.893 Y128.804 E12.55089
G1 X98.18 Y126.268 E12.63577
G1 X98.393 Y123.756 E12.71962
G1 X98.534 Y121.249 E12.80314
G1 X98.605 Y118.706 E12.88775
G1 X98.603 Y116.194 E12.9713
G1 X98.53 Y113.649 E13.05598
G1 X98.386 Y111.126 E13.14004
G1 X98.17 Y108.584 E13.22489
G1 X97.885 Y106.09 E13.30838
G1 X97.671 Y104.52 E13.36108
G1 X97.578 Y103.388 E13.39886
G1 X97.565 Y102.77 E13.41942
G1 X97.566 Y92.631 E13.75664
G0 F6000 X97.966 Y92.636
G1 F1200 X97.975 Y91.971 E13.77876
G1 X98.027 Y91.069 E13.80881
G1 X98.159 Y90.176 E13.83883
G1 X98.369 Y89.298 E13.86886
G1 X98.656 Y88.441 E13.89892
G1 X99.018 Y87.614 E13.92895
G1 X99.451 Y86.822 E13.95897
G1 X99.953 Y86.071 E13.98901
G1 X100.52 Y85.367 E14.01908
G1 X101.146 Y84.717 E14.04909
G1 X101.827 Y84.124 E14.07913
G1 X102.559 Y83.594 E14.10919
G1 X103.334 Y83.131 E14.13921
G1 X104.147 Y82.738 E14.16925
G1 X104.992 Y82.418 E14.1993
G1 X105.861 Y82.175 E14.22931
G1 X106.749 Y82.009 E14.25936
G1 X107.888 Y81.913 E14.29737
G1 X108.495 Y81.9 E14.31757
G1 X126.128 Y81.9 E14.90404
G1 X126.972 Y81.911 E14.93212
G1 X127.874 Y81.964 E14.96217
G1 X128.767 Y82.096 E14.99219
G1 X129.645 Y82.307 E15.02223
G1 X130.501 Y82.595 E15.05227
G1 X131.328 Y82.957 E15.08229
G1 X132.12 Y83.392 E15.11235
G1 X132.871 Y83.894 E15.14239
G1 X133.574 Y84.461 E15.17243
G1 X134.224 Y85.088 E15.20247
G1 X134.816 Y85.77 E15.23251
G1 X135.346 Y86.501 E15.26254
G1 X135.808 Y87.277 E15.29257
G1 X136.201 Y88.09 E15.32261
G1 X136.519 Y88.935 E15.35264
G1 X136.762 Y89.805 E15.38268
G1 X136.927 Y90.693 E15.41272
G1 X137.022 Y91.823 E15.45044
G1 X137.035 Y92.43 E15.47063
G1 X137.034 Y142.29 E17.12898
G1 X137.025 Y143.017 E17.15316
G1 X136.974 Y143.919 E17.18321
G1 X136.843 Y144.813 E17.21327
G1 X136.634 Y145.691 E17.24328
G1 X136.348 Y146.548 E17.27333
G1 X135.987 Y147.376 E17.30338
G1 X135.555 Y148.168 E17.33338
G1 X135.054 Y148.92 E17.36344
G1 X134.488 Y149.624 E17.39348
G1 X133.863 Y150.275 E17.4235
G1 X133.182 Y150.869 E17.45355
G1 X132.451 Y151.4 E17.4836
G1 X131.677 Y151.864 E17.51362
G1 X130.864 Y152.258 E17.54367
G1 X130.02 Y152.578 E17.57369
G1 X129.15 Y152.823 E17.60375
G1 X128.263 Y152.989 E17.63376
G1 X127.112 Y153.087 E17.67218
G1 X126.505 Y153.1 E17.69238
G1 X108.74 Y153.099 E18.28324
G1 X108.042 Y153.09 E18.30646
G1 X107.141 Y153.039 E18.33648
G1 X106.247 Y152.907 E18.36653
G1 X105.369 Y152.698 E18.39655
G1 X104.512 Y152.411 E18.42661
G1 X103.685 Y152.05 E18.45662
G1 X102.892 Y151.617 E18.48668
G1 X102.141 Y151.116 E18.5167
G1 X101.437 Y150.55 E18.54675
G1 X100.786 Y149.924 E18.57678
G1 X100.193 Y149.243 E18.60682
G1 X99.663 Y148.512 E18.63685
G1 X99.199 Y147.737 E18.66689
G1 X98.805 Y146.924 E18.69694
G1 X98.485 Y146.08 E18.72696
G1 X98.241 Y145.21 E18.75702
G1 X98.075 Y144.322 E18.78706
G1 X97.978 Y143.167 E18.82561
G1 X97.965 Y142.558 E18.84587
G1 X97.966 Y132.451 E19.18203
G1 X97.977 Y131.733 E19.20592
G1 X98.059 Y130.59 E19.24403
G1 X98.292 Y128.834 E19.30295
G1 X98.574 Y126.346 E19.38623
G1 X98.792 Y123.779 E19.47192
G1 X98.934 Y121.246 E19.5563
G1 X99.005 Y118.717 E19.64044
G1 X99.003 Y116.183 E19.72472
G1 X98.93 Y113.614 E19.8102
G1 X98.786 Y111.106 E19.89376
G1 X98.571 Y108.576 E19.97821
G1 X98.281 Y106.035 E20.06327
G1 X98.067 Y104.466 E20.11594
G1 X97.978 Y103.377 E20.15228
G1 X97.965 Y102.77 E20.17248
G1 X97.966 Y92.636 E20.50953
G1 F2700 E15.50953
;MESH:vm-base_2.4.0.stl
G0 F6000 X107.5 Y92.636
G0 X108.585 Y92.636
G0 X109.565 Y101.7
;TYPE:WALL-INNER
G1 F2700 E20.50953
G1 F1200 X110.965 Y101.7 E20.5561
G1 X110.965 Y94.1 E20.80887
G1 X111.072 Y93.56 E20.82718
G1 X111.12 Y93.5 E20.82974
G1 X109.565 Y93.5 E20.88146
G1 X109.565 Y101.7 E21.15419
G0 F6000 X111.365 Y102.1
G1 F1200 X111.365 Y94.1 E21.42027
G1 X111.441 Y93.714 E21.43336
G1 X111.765 Y93.298 E21.4509
G1 F1176.5 X112.191 Y93.107 E21.46673
G1 X111.699 Y93.1 E21.48343
G1 F1200 X109.165 Y93.1 E21.56771
G1 X109.165 Y102.1 E21.86705
G1 X111.365 Y102.1 E21.94022
G0 F6000 X111.537 Y93.272
G0 X125.663 Y93.272
G0 X125.835 Y94.1
G1 F1215.2 X125.839 Y93.824 E21.94929
G1 F1243.5 X125.844 Y93.548 E21.95815
G1 F1276.6 X125.849 Y93.272 E21.96678
G1 F1290.3 X125.849 Y93.086 E21.97253
G1 F1280 X125.595 Y93.089 E21.98045
G1 F1256.5 X125.341 Y93.093 E21.98852
G1 F1233.9 X125.087 Y93.096 E21.99674
G1 F1212.1 X124.833 Y93.1 E22.0051
G1 F1215.2 X125.067 Y93.2 E22.01346
G1 F1243.5 X125.299 Y93.301 E22.02158
G1 F1276.6 X125.531 Y93.402 E22.02949
G1 X125.632 Y93.635 E22.03743
G1 F1243.5 X125.733 Y93.867 E22.04555
G1 F1215.2 X125.834 Y94.099 E22.05386
G1 F2700 E17.05386
G0 F6000 X125.663 Y141.728
G0 X125.009 Y141.893
G1 F2700 E22.05386
G1 F1176.5 X125.289 Y141.9 E22.06337
G1 F1218.3 X125.569 Y141.907 E22.07254
G1 F1266.5 X125.849 Y141.914 E22.08137
G1 X125.842 Y141.634 E22.0902
G1 F1221.4 X125.835 Y141.354 E22.09935
G1 F1179.4 X125.828 Y141.074 E22.10883
G1 F1191.1 X125.68 Y141.335 E22.11888
G1 F1256.5 X125.532 Y141.597 E22.12844
G1 F1253.3 X125.271 Y141.745 E22.13799
G1 F1185.2 X125.009 Y141.893 E22.14813
G0 F6000 X111.537 Y141.728
G0 X109.565 Y141.5
G1 F1200 X111.12 Y141.5 E22.19985
G1 X111.072 Y141.439 E22.20243
G1 X110.965 Y140.9 E22.22071
G1 X110.965 Y133.3 E22.47348
G1 X109.565 Y133.3 E22.52005
G1 X109.565 Y141.5 E22.79278
G0 F6000 X112.365 Y141.9
G1 F1200 X111.764 Y141.701 E22.81384
G1 X111.441 Y141.285 E22.83135
G1 X111.365 Y140.9 E22.84441
G1 X111.365 Y132.9 E23.11049
G1 X109.165 Y132.9 E23.18366
G1 X109.165 Y141.9 E23.483
G1 X112.365 Y141.9 E23.58943
G0 F6000 X109.035 Y142.03
G0 X108.765 Y142.3
G1 F1200 X126.235 Y142.3 E24.17049
G1 X126.235 Y93.272 E25.80117
G1 X126.235 Y92.7 E25.82019
G1 X108.765 Y92.7 E26.40125
G1 X108.765 Y102.5 E26.72719
G1 X111.765 Y102.5 E26.82698
G1 X111.765 Y94.1 E27.10636
G1 X111.811 Y93.868 E27.11423
G1 X112.005 Y93.619 E27.12473
G1 X112.279 Y93.5 E27.13466
G1 X124.835 Y93.5 E27.55228
G1 X125.259 Y93.676 E27.56754
G1 X125.435 Y94.1 E27.58281
G1 X125.435 Y114.578 E28.26391
G1 X125.347 Y114.768 E28.27088
G1 X125.347 Y122.234 E28.5192
G1 X125.385 Y122.258 E28.52069
G1 X125.435 Y122.5 E28.52891
G1 X125.435 Y140.989 E29.14386
G1 X125.259 Y141.324 E29.15645
G1 X124.924 Y141.5 E29.16903
G1 X112.365 Y141.5 E29.58675
G1 X112.004 Y141.381 E29.59939
G1 X111.811 Y141.131 E29.60989
G1 X111.765 Y140.9 E29.61773
G1 X111.765 Y132.5 E29.89711
G1 X108.765 Y132.5 E29.99689
G1 X108.765 Y142.3 E30.32284
G0 F6000 X108.365 Y142.7
;TYPE:WALL-OUTER
G1 F1200 X126.635 Y142.7 E30.9305
G1 X126.635 Y93.272 E32.57449
G1 X126.635 Y92.3 E32.60682
G1 X108.365 Y92.3 E33.21448
G1 X108.365 Y102.9 E33.56704
G1 X112.165 Y102.9 E33.69342
G1 X112.165 Y94.041 E33.98808
G1 X112.245 Y93.939 E33.99239
G1 X112.33 Y93.902 E33.99547
G1 X124.835 Y93.9 E34.41139
G1 X124.977 Y93.958 E34.41649
G1 X125.035 Y94.1 E34.42159
G1 X125.033 Y114.572 E35.10249
G1 X124.947 Y114.628 E35.10591
G1 X124.947 Y122.373 E35.36351
G1 X125.035 Y122.429 E35.36698
G1 X125.033 Y140.935 E35.98249
G1 X124.977 Y141.042 E35.9865
G1 X124.87 Y141.098 E35.99052
G1 X112.365 Y141.1 E36.40644
G1 X112.244 Y141.061 E36.41067
G1 X112.165 Y140.957 E36.41501
G1 X112.165 Y132.1 E36.7096
G1 X108.365 Y132.1 E36.83598
G1 X108.365 Y142.7 E37.18854
G0 F6000 X108.635 Y142.43
G0 X112.365 Y141.9
;TYPE:WALL-INNER
G1 F1200 X124.835 Y141.9 E37.6033
G1 F1176.5 X125.009 Y141.893 E37.6092
G0 F6000 X125.663 Y141.728
G0 X125.828 Y141.074
G1 F1179.4 X125.835 Y140.9 E37.6151
G1 F1200 X125.835 Y122.5 E38.22708
G1 F1081.1 X125.791 Y122.08 E38.24267
G1 F983.6 X125.791 Y114.922 E38.53313
G1 F1073.8 X125.835 Y114.627 E38.54421
G1 F1182.3 X125.835 Y113.487 E38.5827
G1 X125.835 Y112.347 E38.62118
G1 X125.835 Y111.207 E38.65967
G1 F1185.2 X125.835 Y110.067 E38.69806
G1 X125.835 Y108.927 E38.73645
G1 F1188.1 X125.835 Y107.787 E38.77475
G1 X125.835 Y106.647 E38.81304
G1 X125.835 Y105.507 E38.85134
G1 F1191.1 X125.835 Y104.367 E38.88954
G1 X125.835 Y103.227 E38.92774
G1 F1194 X125.835 Y102.087 E38.96585
G1 X125.835 Y100.947 E39.00395
G1 X125.835 Y99.807 E39.04206
G1 F1197 X125.835 Y98.667 E39.08007
G1 X125.835 Y97.527 E39.11808
G1 F1200 X125.835 Y96.387 E39.156
G1 X125.835 Y95.247 E39.19391
G1 X125.835 Y94.107 E39.23183
G0 F6000 X125.663 Y93.272
G0 X124.835 Y93.1
G1 F1200 X112.365 Y93.1 E39.64658
G1 F1176.5 X112.191 Y93.107 E39.65249
G0 F6000 X111.537 Y93.272
G0 X110.793 Y101.528
G0 X109.737 Y101.528
G0 X109.665 Y101.27
G0 X109.995 Y101.27
;TYPE:SKIN
G1 F888.9 X110.535 Y101.27 E39.67674
G1 X110.54 Y94.052 E40.00084
G1 X110.564 Y93.93 E40.00642
G1 X109.995 Y93.93 E40.03197
G1 X109.995 Y101.27 E40.36154
G1 F2700 E35.36154
G0 F6000 X109.665 Y101.27
G0 X110.022 Y102.263
G0 X111.537 Y102.272
G0 X111.537 Y93.272
G0 X125.663 Y93.272
G0 X125.663 Y141.728
G0 X111.537 Y141.728
G0 X111.537 Y132.728
G0 X109.665 Y132.74
G0 X109.665 Y141.07
G1 F2700 E40.36154
G0 F6000 X109.995 Y141.07
G1 F888.9 X110.564 Y141.07 E40.38709
G1 X110.535 Y140.895 E40.39506
G1 X110.535 Y133.73 E40.71677
G1 X109.995 Y133.73 E40.74102
G1 X109.995 Y141.07 E41.07059
G0 F6000 X109.365 Y141.07
G1 F2700 E36.07059
;MESH:NONMESH
G0 F300 X109.365 Y141.07 Z0.4
G0 F6000 X109.62 Y132.737
G0 X111.537 Y132.728
G0 X111.537 Y141.728
G0 X125.663 Y141.728
G0 X125.663 Y93.272
G0 X111.537 Y93.272
G0 X111.537 Y102.272
G0 X109.565 Y101.7
;TIME_ELAPSED:76.655461
;LAYER:1
M106 S85
;TYPE:WALL-INNER
;MESH:vm-base_2.4.0.stl
G1 F2700 E41.07059
G1 F1200 X110.965 Y101.7 E41.11716
G1 X110.965 Y94.1 E41.36993
G1 X111.072 Y93.56 E41.38824
G1 X111.12 Y93.5 E41.3908
G1 X109.565 Y93.5 E41.44252
G1 X109.565 Y101.7 E41.71525
G0 F7500 X111.365 Y102.1
G1 F1200 X111.365 Y94.1 E41.98133
G1 X111.441 Y93.714 E41.99442
G1 X111.765 Y93.298 E42.01196
G1 F1176.5 X112.191 Y93.107 E42.02779
G1 X111.699 Y93.1 E42.04449
