;FLAVOR:Marlin
;TIME:2766
;Filament used: 1.39413m
;Layer height: 0.2
;MINX:100.329
;MINY:88.8
;MINZ:0.2
;MAXX:136.121
;MAXY:146.2
;MAXZ:19
;POSTPROCESSED
;Generated with Cura_SteamEngine main
M140 S35
M105
M190 S35
M104 S200
M105
M109 S200
M82 ;absolute extrusion mode
; Ender 3 Custom Start G-code
G92 E0 ; Reset Extruder
G28 ; Home all axes
G1 Z2.0 F3000 ; Move Z Axis up little to prevent scratching of Heat Bed
G1 X0.1 Y20 Z0.3 F5000.0 ; Move to start position
G1 X0.1 Y200.0 Z0.3 F1500.0 E15 ; Draw the first line
G1 X0.4 Y200.0 Z0.3 F5000.0 ; Move to side a little
G1 X0.4 Y20 Z0.3 F1500.0 E30 ; Draw the second line
G92 E0 ; Reset Extruder
G1 Z2.0 F3000 ; Move Z Axis up little to prevent scratching of Heat Bed
G1 X5 Y20 Z0.3 F5000.0 ; Move over to prevent blob squish
G92 E0
G92 E0
G1 F2700 E-5
;LAYER_COUNT:95
;LAYER:0
M107
G0 F6000 X102.892 Y92.761 Z0.2
G0 X100.329 Y100.342
;TYPE:SKIRT
G1 F2700 E0
G1 F1200 X100.338 Y99.664 E0.02255
G1 X100.39 Y98.728 E0.05373
G1 X100.522 Y97.799 E0.08494
G1 X100.733 Y96.885 E0.11614
G1 X101.021 Y95.992 E0.14735
G1 X101.383 Y95.128 E0.17851
G1 X101.818 Y94.297 E0.2097
G1 X102.323 Y93.506 E0.24092
G1 X102.892 Y92.761 E0.27209
G1 X103.524 Y92.067 E0.30331
G1 X104.212 Y91.43 E0.3345
G1 X104.951 Y90.853 E0.36568
G1 X105.737 Y90.342 E0.39686
G1 X106.564 Y89.899 E0.42807
G1 X107.426 Y89.529 E0.45927
G1 X108.316 Y89.233 E0.49046
G1 X109.228 Y89.014 E0.52166
G1 X110.155 Y88.874 E0.55284
G1 X111.06 Y88.813 E0.58301
G1 X111.734 Y88.8 E0.60543
G1 X113.326 Y88.801 E0.65838
G1 X114.024 Y88.811 E0.6816
G1 X114.96 Y88.865 E0.71278
G1 X115.888 Y88.997 E0.74396
G1 X116.802 Y89.209 E0.77517
G1 X117.694 Y89.498 E0.80635
G1 X118.559 Y89.861 E0.83755
G1 X119.389 Y90.297 E0.86874
G1 X120.18 Y90.802 E0.89995
G1 X120.924 Y91.373 E0.93114
G1 X121.842 Y92.235 E0.97303
G1 X122.546 Y92.978 E1.00707
G1 X130.143 Y101.233 E1.38021
G1 X130.721 Y101.879 E1.40904
G1 X131.316 Y102.604 E1.44023
G1 X131.846 Y103.378 E1.47143
G1 X132.156 Y103.906 E1.4918
G1 X133.06 Y105.55 E1.5542
G1 X133.623 Y106.522 E1.59156
G1 X134.621 Y108.304 E1.65949
G1 X135.044 Y109.141 E1.69068
G1 X135.394 Y110.011 E1.72187
G1 X135.641 Y110.786 E1.74892
G1 X135.875 Y111.694 E1.78011
G1 X136.031 Y112.619 E1.81131
G1 X136.115 Y113.875 E1.85318
G1 X136.121 Y114.512 E1.87437
G1 X136.111 Y117.019 E1.95775
G1 X136.121 Y118.047 E1.99194
G1 X136.111 Y120.443 E2.07164
G1 X136.121 Y121.427 E2.10437
G1 X136.111 Y123.873 E2.18572
G1 X136.117 Y124.45 E2.20491
G1 X136.087 Y125.388 E2.23613
G1 X135.976 Y126.319 E2.26731
G1 X135.701 Y127.555 E2.30943
G1 X135.599 Y127.915 E2.32187
G1 X135.305 Y128.805 E2.35305
G1 X134.792 Y129.959 E2.39505
G1 X134.028 Y131.425 E2.45003
G1 X132.896 Y133.688 E2.53419
G1 X131.849 Y135.941 E2.61682
G1 X130.344 Y139.487 E2.74495
G1 X129.941 Y140.334 E2.77614
G1 X129.468 Y141.143 E2.80731
G1 X128.927 Y141.909 E2.8385
G1 X128.323 Y142.627 E2.86971
G1 X127.66 Y143.29 E2.9009
G1 X126.943 Y143.895 E2.9321
G1 X126.177 Y144.436 E2.96329
G1 X125.368 Y144.91 E2.99448
G1 X124.521 Y145.313 E3.02567
G1 X123.643 Y145.643 E3.05687
G1 X122.74 Y145.897 E3.08807
G1 X121.819 Y146.073 E3.11926
G1 X120.558 Y146.185 E3.16136
G1 X119.895 Y146.2 E3.18342
G1 X114.946 Y146.199 E3.34802
G1 X114.248 Y146.19 E3.37124
G1 X113.312 Y146.138 E3.40242
G1 X112.383 Y146.006 E3.43363
G1 X111.469 Y145.796 E3.46482
G1 X110.576 Y145.509 E3.49602
G1 X109.711 Y145.146 E3.52722
G1 X108.88 Y144.712 E3.5584
G1 X108.089 Y144.208 E3.5896
G1 X107.344 Y143.638 E3.6208
G1 X106.65 Y143.007 E3.65199
G1 X106.013 Y142.32 E3.68316
G1 X105.436 Y141.58 E3.71437
G1 X104.924 Y140.794 E3.74557
G1 X104.481 Y139.967 E3.77677
G1 X104.11 Y139.106 E3.80795
G1 X103.814 Y138.216 E3.83915
G1 X103.595 Y137.304 E3.87034
G1 X103.454 Y136.377 E3.90153
G1 X103.392 Y135.416 E3.93356
G1 X103.325 Y132.152 E4.04214
G1 X103.201 Y129.634 E4.12599
G1 X103.003 Y127.103 E4.21043
G1 X102.742 Y124.643 E4.29271
G1 X102.401 Y122.128 E4.37713
G1 X101.996 Y119.654 E4.46051
G1 X101.511 Y117.144 E4.54553
G1 X100.979 Y114.749 E4.62713
G1 X100.784 Y113.972 E4.65378
G1 X100.624 Y113.29 E4.67708
G1 X100.451 Y112.368 E4.70828
G1 X100.344 Y111.125 E4.74977
G1 X100.329 Y110.463 E4.7718
G1 X100.329 Y100.342 E5.10842
G0 F6000 X100.729 Y100.347
G1 F1200 X100.738 Y99.669 E5.13098
G1 X100.79 Y98.75 E5.16159
G1 X100.922 Y97.839 E5.19221
G1 X101.132 Y96.943 E5.22282
G1 X101.419 Y96.068 E5.25344
G1 X101.782 Y95.222 E5.28406
G1 X102.216 Y94.41 E5.31469
G1 X102.719 Y93.639 E5.3453
G1 X103.287 Y92.914 E5.37594
G1 X103.916 Y92.242 E5.40655
G1 X104.6 Y91.626 E5.43717
G1 X105.336 Y91.072 E5.46781
G1 X106.117 Y90.585 E5.49842
G1 X106.937 Y90.166 E5.52905
G1 X107.79 Y89.821 E5.55965
G1 X108.67 Y89.551 E5.59026
G1 X109.571 Y89.358 E5.62091
G1 X110.484 Y89.244 E5.65151
G1 X111.07 Y89.213 E5.67103
G1 X111.734 Y89.2 E5.69312
G1 X113.168 Y89.2 E5.74082
G1 X114.018 Y89.211 E5.76909
G1 X114.937 Y89.264 E5.79971
G1 X115.848 Y89.397 E5.83033
G1 X116.744 Y89.608 E5.86094
G1 X117.618 Y89.896 E5.89155
G1 X118.465 Y90.259 E5.9222
G1 X119.276 Y90.694 E5.95281
G1 X120.046 Y91.198 E5.98342
G1 X120.77 Y91.767 E6.01405
G1 X121.552 Y92.51 E6.04992
G1 X122.252 Y93.249 E6.08378
G1 X129.849 Y101.504 E6.45691
G1 X130.423 Y102.145 E6.48553
G1 X131.006 Y102.858 E6.51617
G1 X131.525 Y103.618 E6.54677
G1 X131.805 Y104.098 E6.56526
G1 X132.703 Y105.73 E6.62721
G1 X133.274 Y106.717 E6.66514
G1 X134.272 Y108.499 E6.73307
G1 X134.687 Y109.322 E6.76373
G1 X135.168 Y110.602 E6.80921
G1 X135.259 Y110.902 E6.81963
G1 X135.487 Y111.794 E6.85025
G1 X135.638 Y112.702 E6.88087
G1 X135.715 Y113.879 E6.9201
G1 X135.721 Y114.516 E6.94129
G1 X135.711 Y117.066 E7.0261
G1 X135.721 Y118.045 E7.05866
G1 X135.711 Y120.446 E7.13852
G1 X135.721 Y121.425 E7.17109
G1 X135.711 Y123.769 E7.24905
G1 X135.718 Y124.454 E7.27183
G1 X135.686 Y125.374 E7.30245
G1 X135.576 Y126.288 E7.33307
G1 X135.317 Y127.446 E7.37254
G1 X135.215 Y127.806 E7.38498
G1 X134.925 Y128.68 E7.41561
G1 X134.436 Y129.776 E7.45553
G1 X133.661 Y131.264 E7.51133
G1 X132.533 Y133.519 E7.59519
G1 X131.487 Y135.77 E7.67775
G1 X129.976 Y139.33 E7.80638
G1 X129.58 Y140.161 E7.83699
G1 X129.113 Y140.955 E7.86763
G1 X128.579 Y141.705 E7.89825
G1 X127.983 Y142.406 E7.92886
G1 X127.327 Y143.053 E7.9595
G1 X126.618 Y143.64 E7.99012
G1 X125.861 Y144.163 E8.02072
G1 X125.061 Y144.619 E8.05135
G1 X124.224 Y145.004 E8.08199
G1 X123.358 Y145.314 E8.11258
G1 X122.467 Y145.549 E8.14323
G1 X121.56 Y145.705 E8.17384
G1 X120.546 Y145.785 E8.20767
G1 X119.895 Y145.8 E8.22933
G1 X114.951 Y145.799 E8.39377
G1 X114.253 Y145.79 E8.41698
G1 X113.334 Y145.738 E8.4476
G1 X112.423 Y145.607 E8.47821
G1 X111.527 Y145.397 E8.50882
G1 X110.652 Y145.11 E8.53945
G1 X109.805 Y144.748 E8.57008
G1 X108.993 Y144.314 E8.60071
G1 X108.222 Y143.812 E8.63131
G1 X107.497 Y143.244 E8.66194
G1 X106.824 Y142.615 E8.69258
G1 X106.209 Y141.931 E8.72317
G1 X105.655 Y141.196 E8.75378
G1 X105.167 Y140.415 E8.78441
G1 X104.748 Y139.595 E8.81504
G1 X104.402 Y138.742 E8.84566
G1 X104.132 Y137.862 E8.87627
G1 X103.939 Y136.961 E8.90692
G1 X103.825 Y136.048 E8.93752
G1 X103.792 Y135.407 E8.95887
G1 X103.725 Y132.126 E9.06802
G1 X103.601 Y129.617 E9.15157
G1 X103.404 Y127.097 E9.23564
G1 X103.133 Y124.548 E9.3209
G1 X102.799 Y122.08 E9.40374
G1 X102.39 Y119.584 E9.48786
G1 X101.909 Y117.095 E9.57218
G1 X101.363 Y114.636 E9.65595
G1 X101.172 Y113.875 E9.68205
G1 X101.014 Y113.199 E9.70514
G1 X100.845 Y112.294 E9.73576
G1 X100.744 Y111.114 E9.77515
G1 X100.729 Y110.463 E9.79681
G1 X100.729 Y100.347 E10.13327
G0 F6000 X101.129 Y100.353
G1 F1200 X101.138 Y99.675 E10.15582
G1 X101.19 Y98.773 E10.18587
G1 X101.321 Y97.88 E10.21589
G1 X101.531 Y97.001 E10.24595
G1 X101.818 Y96.145 E10.27598
G1 X102.18 Y95.317 E10.30603
G1 X102.613 Y94.525 E10.33606
G1 X103.115 Y93.774 E10.3661
G1 X103.681 Y93.07 E10.39615
G1 X104.307 Y92.42 E10.42616
G1 X104.988 Y91.827 E10.45619
G1 X105.719 Y91.296 E10.48625
G1 X106.494 Y90.833 E10.51627
G1 X107.307 Y90.44 E10.54631
G1 X108.152 Y90.12 E10.57636
G1 X109.022 Y89.876 E10.60641
G1 X109.909 Y89.71 E10.63642
G1 X111.08 Y89.613 E10.67551
G1 X111.734 Y89.6 E10.69726
G1 X113.168 Y89.6 E10.74496
G1 X114.012 Y89.611 E10.77303
G1 X114.914 Y89.664 E10.80308
G1 X115.807 Y89.796 E10.83311
G1 X116.685 Y90.007 E10.86314
G1 X117.541 Y90.295 E10.89318
G1 X118.368 Y90.657 E10.92321
G1 X119.16 Y91.092 E10.95326
G1 X119.911 Y91.594 E10.9833
G1 X120.614 Y92.161 E11.01334
G1 X121.262 Y92.786 E11.04329
G1 X121.848 Y93.403 E11.07159
G1 X129.657 Y101.887 E11.45511
G1 X130.125 Y102.411 E11.47847
G1 X130.696 Y103.111 E11.50852
G1 X131.203 Y103.858 E11.53855
G1 X131.455 Y104.291 E11.55521
G1 X132.364 Y105.944 E11.61795
G1 X132.846 Y106.774 E11.64988
G1 X133.923 Y108.695 E11.72312
G1 X134.329 Y109.502 E11.75317
G1 X134.785 Y110.718 E11.79637
G1 X134.876 Y111.018 E11.80679
G1 X135.099 Y111.893 E11.83683
G1 X135.245 Y112.785 E11.86689
G1 X135.315 Y113.883 E11.90348
G1 X135.321 Y114.52 E11.92467
G1 X135.311 Y117.068 E12.00942
G1 X135.321 Y118.044 E12.04188
G1 X135.311 Y120.448 E12.12184
G1 X135.321 Y121.424 E12.1543
G1 X135.311 Y123.772 E12.2324
G1 X135.318 Y124.458 E12.25522
G1 X135.286 Y125.36 E12.28524
G1 X135.175 Y126.257 E12.3153
G1 X134.932 Y127.337 E12.35212
G1 X134.83 Y127.697 E12.36456
G1 X134.545 Y128.554 E12.3946
G1 X134.081 Y129.593 E12.43245
G1 X133.562 Y130.599 E12.4701
G1 X133.315 Y131.061 E12.48752
G1 X132.185 Y133.323 E12.57162
G1 X131.114 Y135.624 E12.65604
G1 X129.608 Y139.174 E12.7843
G1 X129.219 Y139.989 E12.81433
G1 X128.759 Y140.766 E12.84436
G1 X128.232 Y141.5 E12.87442
G1 X127.642 Y142.184 E12.90446
G1 X126.995 Y142.813 E12.93447
G1 X126.294 Y143.383 E12.96452
G1 X125.545 Y143.888 E12.99457
G1 X124.755 Y144.325 E13.0246
G1 X123.929 Y144.691 E13.05465
G1 X123.074 Y144.982 E13.08469
G1 X122.197 Y145.196 E13.11471
G1 X121.304 Y145.332 E13.14475
G1 X120.534 Y145.385 E13.17043
G1 X119.895 Y145.4 E13.19168
G1 X114.956 Y145.399 E13.35596
G1 X114.258 Y145.39 E13.37917
G1 X113.357 Y145.339 E13.40919
G1 X112.463 Y145.207 E13.43925
G1 X111.585 Y144.998 E13.46926
G1 X110.728 Y144.711 E13.49932
G1 X109.901 Y144.35 E13.52934
G1 X109.108 Y143.917 E13.55939
G1 X108.357 Y143.416 E13.58941
G1 X107.653 Y142.85 E13.61946
G1 X107.002 Y142.224 E13.6495
G1 X106.409 Y141.543 E13.67953
G1 X105.879 Y140.812 E13.70956
G1 X105.415 Y140.037 E13.73961
G1 X105.021 Y139.224 E13.76965
G1 X104.701 Y138.38 E13.79968
G1 X104.457 Y137.51 E13.82973
G1 X104.291 Y136.622 E13.85978
G1 X104.192 Y135.399 E13.90059
G1 X104.125 Y132.098 E14.0104
G1 X104 Y129.593 E14.09382
G1 X103.803 Y127.06 E14.17832
G1 X103.533 Y124.524 E14.26315
G1 X103.192 Y121.999 E14.34789
G1 X102.783 Y119.51 E14.43179
G1 X102.299 Y117.004 E14.51668
G1 X101.756 Y114.557 E14.60004
G1 X101.517 Y113.6 E14.63285
G1 X101.403 Y113.109 E14.64962
G1 X101.238 Y112.221 E14.67966
G1 X101.143 Y111.102 E14.71701
G1 X101.129 Y110.463 E14.73827
G1 X101.129 Y100.353 E15.07453
G1 F2700 E10.07453
;MESH:vm-latch_2.4.0.stl
G0 F6000 X110.664 Y100.353
G0 X111.729 Y100.352
G0 X112.901 Y101.373
G0 X113.162 Y101.366
G0 X121.076 Y109.688
;TYPE:WALL-INNER
G1 F2700 E15.07453
G1 F1200 X113.262 Y101.201 E15.45823
G1 X112.729 Y101.201 E15.47596
G1 X112.729 Y109.4 E15.74866
G1 X120.224 Y109.4 E15.99794
G1 X121.076 Y109.688 E16.02785
G0 F6000 X121.525 Y110.859
G1 F1200 X121.525 Y109.59 E16.07006
G1 X113.438 Y100.801 E16.4673
G1 X112.329 Y100.801 E16.50419
G1 X112.329 Y109.8 E16.80349
G1 X120.224 Y109.8 E17.06608
G1 X120.833 Y110.005 E17.08746
G1 X121.021 Y110.195 E17.09635
G1 X121.525 Y110.859 E17.12407
G0 F6000 X121.694 Y111.359
G0 X121.925 Y112.047
G1 F1200 X121.925 Y109.434 E17.21098
G1 X113.613 Y100.401 E17.61926
G1 X111.929 Y100.401 E17.67527
G1 X111.929 Y110.2 E18.00119
G1 X120.224 Y110.2 E18.27708
G1 X120.624 Y110.334 E18.29111
G1 X121.925 Y112.047 E18.36265
G1 F2700 E13.36265
G0 F6000 X121.694 Y111.359
G0 X122.27 Y113.284
G0 X123.923 Y113.451
G0 X124.376 Y113.668
G0 X124.533 Y114.101
G0 X124.473 Y114.582
G0 X124.252 Y114.852
G0 X123.9 Y114.979
G0 X122.241 Y115.175
G0 X121.963 Y116.218
G0 X122.619 Y116.812
G0 X123.923 Y116.831
G0 X124.376 Y117.048
G0 X124.533 Y117.481
G0 X124.473 Y117.962
G0 X124.252 Y118.232
G0 X123.9 Y118.359
G0 X122.241 Y118.555
G0 X121.992 Y119.679
G0 X122.805 Y120.211
G0 X123.923 Y120.211
G0 X124.376 Y120.428
G0 X124.533 Y120.861
G0 X124.473 Y121.342
G0 X124.252 Y121.612
G0 X123.9 Y121.739
G0 X122.241 Y121.935
G0 X121.992 Y123.059
G0 X122.805 Y123.591
G0 X123.923 Y123.591
G0 X124.376 Y123.808
G0 X124.533 Y124.241
G0 X124.473 Y124.722
G0 X124.252 Y124.992
G0 X123.871 Y125.129
G0 X119.245 Y126.237
G0 X118.907 Y133.882
G0 X115.781 Y133.8
G1 F2700 E18.36265
G1 F1200 X118.825 Y133.8 E18.4639
G1 X118.825 Y126.94 E18.69206
G1 X118.885 Y126.532 E18.70578
G1 X119.09 Y126.092 E18.72192
G1 X119.38 Y125.823 E18.73508
G1 X120.21 Y125.199 E18.76962
G1 X119.38 Y124.577 E18.80411
G1 X119.09 Y124.308 E18.81727
G1 X118.885 Y123.868 E18.83342
G1 X118.825 Y123.46 E18.84713
G1 X118.825 Y116.6 E19.0753
G1 X115.781 Y116.6 E19.17654
G1 X115.781 Y133.8 E19.74861
G0 F6000 X115.381 Y134.2
G1 F1200 X119.225 Y134.2 E19.87647
G1 X119.225 Y126.94 E20.11793
G1 X119.268 Y126.648 E20.12775
G1 X119.387 Y126.393 E20.13711
G1 X119.621 Y126.142 E20.14852
G1 X120.424 Y125.533 E20.18204
G1 X120.642 Y125.41 E20.19037
G1 X121.144 Y125.2 E20.20847
G1 X120.642 Y124.99 E20.22657
G1 X120.421 Y124.862 E20.23506
G1 X119.621 Y124.258 E20.2684
G1 X119.387 Y124.007 E20.27981
G1 X119.268 Y123.752 E20.28917
G1 X119.225 Y123.46 E20.29899
G1 X119.225 Y116.2 E20.54046
G1 X115.381 Y116.2 E20.66831
G1 X115.381 Y134.2 E21.26699
G0 F6000 X114.981 Y134.6
G1 F1200 X119.625 Y134.6 E21.42145
G1 X119.625 Y126.818 E21.68028
G1 X119.722 Y126.611 E21.68789
G1 X119.862 Y126.461 E21.69471
G1 X120.722 Y125.81 E21.73059
G1 X121.665 Y125.415 E21.76459
G1 X123.209 Y125.2 E21.81644
G1 X121.665 Y124.985 E21.86829
G1 X120.73 Y124.593 E21.90201
G1 X119.862 Y123.939 E21.93816
G1 X119.722 Y123.789 E21.94498
G1 X119.625 Y123.582 E21.95259
G1 X119.625 Y115.8 E22.21142
G1 X114.981 Y115.8 E22.36588
G1 X114.981 Y134.6 E22.99117
G0 F6000 X114.581 Y135
;TYPE:WALL-OUTER
G1 F1200 X120.025 Y135 E23.17223
G1 X120.025 Y126.898 E23.44171
G1 X120.068 Y126.808 E23.44503
G1 X120.904 Y126.174 E23.47992
G1 F1170.7 X121.192 Y126.052 E23.49059
G1 F1116.3 X121.48 Y125.929 E23.50178
G1 F1066.7 X121.768 Y125.806 E23.5135
G1 F1036.7 X122.023 Y125.763 E23.52346
G1 F1019.1 X122.278 Y125.72 E23.53358
G1 F1004.2 X122.534 Y125.677 E23.5439
G1 F987.7 X122.789 Y125.634 E23.55435
G1 F973.6 X123.044 Y125.59 E23.56496
G1 F958.1 X123.3 Y125.547 E23.57577
G1 F944.9 X123.555 Y125.504 E23.5867
G1 F930.2 X123.811 Y125.461 E23.59783
G1 F923.1 X124.123 Y125.426 E23.61141
G1 F921.3 X124.447 Y125.258 E23.62722
G1 X124.664 Y125.04 E23.64055
G1 F923.1 X124.785 Y124.816 E23.65155
G1 F914.3 X124.862 Y124.539 E23.6641
G1 F910.8 X124.858 Y124.174 E23.6801
G1 F917.8 X124.856 Y124.138 E23.68167
G1 F916 X124.78 Y123.892 E23.69289
G1 F917.8 X124.665 Y123.67 E23.70376
G1 F921.3 X124.481 Y123.487 E23.715
G1 F916 X124.128 Y123.301 E23.73239
G1 F917.8 X123.885 Y123.251 E23.74317
G1 F923.1 X122.729 Y123.248 E23.79316
G1 F917.8 X122.453 Y123.124 E23.80632
G1 X122.37 Y123.045 E23.8113
G1 F919.5 X122.268 Y122.78 E23.82362
G1 F923.1 X122.305 Y122.401 E23.84009
G1 F924.9 X122.455 Y122.2 E23.85091
G1 F921.3 X122.696 Y122.081 E23.86256
G1 F917.8 X123.954 Y122.078 E23.91726
G1 F914.3 X124.223 Y121.995 E23.92955
G1 F917.8 X124.447 Y121.878 E23.94054
G1 F921.3 X124.664 Y121.66 E23.95387
G1 F923.1 X124.785 Y121.436 E23.96488
G1 F914.3 X124.862 Y121.159 E23.97743
G1 F907.4 X124.863 Y120.782 E23.99401
G1 F912.5 X124.78 Y120.512 E24.00636
G1 F917.8 X124.665 Y120.29 E24.01724
G1 F921.3 X124.481 Y120.107 E24.02848
G1 F916 X124.128 Y119.921 E24.04586
G1 F917.8 X123.885 Y119.871 E24.05665
G1 F923.1 X122.729 Y119.868 E24.10664
G1 F917.8 X122.453 Y119.744 E24.1198
G1 X122.37 Y119.665 E24.12478
G1 F919.5 X122.268 Y119.401 E24.13706
G1 X122.27 Y119.137 E24.14852
G1 F917.8 X122.395 Y118.884 E24.16079
G1 F921.3 X122.664 Y118.702 E24.17486
G1 F926.6 X123.96 Y118.699 E24.23069
