;FLAVOR:Marlin
;TIME:4434
;Filament used: 2.55921m
;Layer height: 0.2
;MINX:96.7
;MINY:81.1
;MINZ:0.2
;MAXX:138.3
;MAXY:153.9
;MAXZ:24.4
;POSTPROCESSED
;Generated with Cura_SteamEngine main
M140 S35
M105
M190 S35
M104 S200
M105
M109 S200
M82 ;absolute extrusion mode
; Ender 3 Custom Start G-code
G92 E0 ; Reset Extruder
G28 ; Home all axes
G1 Z2.0 F3000 ; Move Z Axis up little to prevent scratching of Heat Bed
G1 X0.1 Y20 Z0.3 F5000.0 ; Move to start position
G1 X0.1 Y200.0 Z0.3 F1500.0 E15 ; Draw the first line
G1 X0.4 Y200.0 Z0.3 F5000.0 ; Move to side a little
G1 X0.4 Y20 Z0.3 F1500.0 E30 ; Draw the second line
G92 E0 ; Reset Extruder
G1 Z2.0 F3000 ; Move Z Axis up little to prevent scratching of Heat Bed
G1 X5 Y20 Z0.3 F5000.0 ; Move over to prevent blob squish
G92 E0
G92 E0
G1 F2700 E-5
;LAYER_COUNT:122
;LAYER:0
M107
G0 F6000 X99.266 Y85.058 Z0.2
G0 X96.701 Y92.625
;TYPE:SKIRT
G1 F2700 E0
G1 F1200 X96.71 Y91.96 E0.02212
G1 X96.763 Y91.024 E0.0533
G1 X96.895 Y90.095 E0.08451
G1 X97.106 Y89.181 E0.11571
G1 X97.394 Y88.289 E0.14689
G1 X97.757 Y87.424 E0.17809
G1 X98.192 Y86.593 E0.20928
G1 X98.696 Y85.803 E0.24045
G1 X99.266 Y85.058 E0.27165
G1 X99.898 Y84.364 E0.30287
G1 X100.586 Y83.727 E0.33405
G1 X101.326 Y83.151 E0.36524
G1 X102.112 Y82.639 E0.39644
G1 X102.939 Y82.197 E0.42763
G1 X103.801 Y81.827 E0.45883
G1 X104.691 Y81.531 E0.49003
G1 X105.603 Y81.313 E0.52122
G1 X106.53 Y81.172 E0.5524
G1 X107.401 Y81.113 E0.58144
G1 X108.03 Y81.1 E0.60236
G1 X126.751 Y81.101 E1.22503
G1 X127.449 Y81.111 E1.24824
G1 X128.385 Y81.165 E1.27943
G1 X129.313 Y81.297 E1.3106
G1 X130.227 Y81.509 E1.34181
G1 X131.119 Y81.798 E1.373
G1 X131.984 Y82.161 E1.4042
G1 X132.814 Y82.597 E1.43538
G1 X133.605 Y83.102 E1.46659
G1 X134.349 Y83.673 E1.49779
G1 X135.042 Y84.305 E1.52898
G1 X135.679 Y84.993 E1.56017
G1 X136.254 Y85.734 E1.59136
G1 X136.765 Y86.52 E1.62254
G1 X137.207 Y87.348 E1.65376
G1 X137.576 Y88.21 E1.68495
G1 X137.871 Y89.1 E1.71613
G1 X138.089 Y90.012 E1.74732
G1 X138.229 Y90.94 E1.77854
G1 X138.287 Y91.801 E1.80724
G1 X138.3 Y92.43 E1.82816
G1 X138.299 Y142.3 E3.48685
G1 X138.29 Y143.027 E3.51103
G1 X138.239 Y143.964 E3.54224
G1 X138.107 Y144.892 E3.57342
G1 X137.898 Y145.806 E3.6046
G1 X137.611 Y146.699 E3.6358
G1 X137.249 Y147.565 E3.66702
G1 X136.815 Y148.396 E3.6982
G1 X136.311 Y149.187 E3.72939
G1 X135.742 Y149.932 E3.76057
G1 X135.111 Y150.627 E3.79179
G1 X134.424 Y151.265 E3.82298
G1 X133.685 Y151.842 E3.85416
G1 X132.899 Y152.354 E3.88536
G1 X132.073 Y152.797 E3.91654
G1 X131.211 Y153.169 E3.94776
G1 X130.322 Y153.465 E3.97893
G1 X129.41 Y153.685 E4.01013
G1 X128.483 Y153.826 E4.04132
G1 X127.599 Y153.887 E4.07079
G1 X126.97 Y153.9 E4.09171
G1 X108.265 Y153.899 E4.71384
G1 X107.567 Y153.89 E4.73706
G1 X106.631 Y153.838 E4.76824
G1 X105.702 Y153.706 E4.79945
G1 X104.788 Y153.496 E4.83064
G1 X103.895 Y153.209 E4.86184
G1 X103.03 Y152.846 E4.89304
G1 X102.199 Y152.412 E4.92422
G1 X101.408 Y151.908 E4.95542
G1 X100.663 Y151.338 E4.98662
G1 X99.969 Y150.707 E5.01781
G1 X99.332 Y150.02 E5.04897
G1 X98.755 Y149.28 E5.08018
G1 X98.243 Y148.494 E5.11138
G1 X97.8 Y147.667 E5.14259
G1 X97.429 Y146.806 E5.17377
G1 X97.133 Y145.916 E5.20497
G1 X96.914 Y145.004 E5.23616
G1 X96.773 Y144.077 E5.26735
G1 X96.713 Y143.188 E5.29698
G1 X96.7 Y142.558 E5.31794
G1 X96.701 Y92.625 E6.97872
G0 F6000 X97.101 Y92.631
G1 F1200 X97.11 Y91.966 E7.00084
G1 X97.162 Y91.046 E7.03149
G1 X97.294 Y90.135 E7.0621
G1 X97.505 Y89.239 E7.09272
G1 X97.792 Y88.364 E7.12335
G1 X98.155 Y87.518 E7.15397
G1 X98.589 Y86.706 E7.18459
G1 X99.092 Y85.935 E7.21521
G1 X99.661 Y85.211 E7.24584
G1 X100.289 Y84.539 E7.27643
G1 X100.974 Y83.923 E7.30707
G1 X101.71 Y83.37 E7.33769
G1 X102.491 Y82.882 E7.36832
G1 X103.311 Y82.464 E7.39893
G1 X104.165 Y82.119 E7.42956
G1 X105.045 Y81.849 E7.46018
G1 X105.945 Y81.657 E7.49079
G1 X106.859 Y81.543 E7.52142
G1 X107.412 Y81.513 E7.53984
G1 X108.03 Y81.5 E7.5604
G1 X126.593 Y81.5 E8.17781
G1 X127.443 Y81.511 E8.20608
G1 X128.362 Y81.564 E8.2367
G1 X129.273 Y81.697 E8.26732
G1 X130.169 Y81.908 E8.29794
G1 X131.043 Y82.196 E8.32854
G1 X131.89 Y82.559 E8.35919
G1 X132.701 Y82.994 E8.3898
G1 X133.471 Y83.498 E8.42041
G1 X134.195 Y84.067 E8.45104
G1 X134.867 Y84.697 E8.48168
G1 X135.482 Y85.382 E8.51229
G1 X136.035 Y86.118 E8.54291
G1 X136.522 Y86.899 E8.57353
G1 X136.939 Y87.72 E8.60415
G1 X137.284 Y88.574 E8.63479
G1 X137.553 Y89.454 E8.66539
G1 X137.745 Y90.355 E8.69603
G1 X137.858 Y91.268 E8.72663
G1 X137.887 Y91.812 E8.74475
G1 X137.9 Y92.43 E8.76531
G1 X137.899 Y142.295 E10.42383
G1 X137.89 Y143.022 E10.44801
G1 X137.839 Y143.941 E10.47862
G1 X137.708 Y144.853 E10.50927
G1 X137.498 Y145.749 E10.53988
G1 X137.212 Y146.624 E10.57049
G1 X136.851 Y147.471 E10.60112
G1 X136.417 Y148.283 E10.63174
G1 X135.915 Y149.055 E10.66237
G1 X135.347 Y149.78 E10.693
G1 X134.719 Y150.453 E10.72362
G1 X134.035 Y151.069 E10.75423
G1 X133.3 Y151.623 E10.78484
G1 X132.52 Y152.112 E10.81546
G1 X131.7 Y152.531 E10.84609
G1 X130.847 Y152.877 E10.87671
G1 X129.967 Y153.148 E10.90733
G1 X129.067 Y153.341 E10.93795
G1 X128.153 Y153.456 E10.96859
G1 X127.588 Y153.487 E10.98741
G1 X126.97 Y153.5 E11.00797
G1 X108.27 Y153.499 E11.62993
G1 X107.572 Y153.49 E11.65315
G1 X106.653 Y153.438 E11.68376
G1 X105.742 Y153.307 E11.71438
G1 X104.846 Y153.097 E11.74498
G1 X103.971 Y152.81 E11.77561
G1 X103.124 Y152.448 E11.80625
G1 X102.312 Y152.014 E11.83687
G1 X101.541 Y151.512 E11.86747
G1 X100.816 Y150.944 E11.8981
G1 X100.143 Y150.315 E11.92874
G1 X99.528 Y149.631 E11.95934
G1 X98.974 Y148.896 E11.98995
G1 X98.486 Y148.115 E12.02058
G1 X98.067 Y147.295 E12.05121
G1 X97.721 Y146.442 E12.08182
G1 X97.451 Y145.562 E12.11244
G1 X97.258 Y144.661 E12.14309
G1 X97.144 Y143.748 E12.17369
G1 X97.113 Y143.177 E12.19271
G1 X97.1 Y142.558 E12.2133
G1 X97.101 Y92.631 E13.87388
G0 F6000 X97.501 Y92.636
G1 F1200 X97.51 Y91.971 E13.896
G1 X97.562 Y91.069 E13.92605
G1 X97.694 Y90.176 E13.95607
G1 X97.904 Y89.298 E13.9861
G1 X98.191 Y88.441 E14.01616
G1 X98.553 Y87.614 E14.04618
G1 X98.986 Y86.822 E14.07621
G1 X99.488 Y86.071 E14.10625
G1 X100.055 Y85.367 E14.13632
G1 X100.681 Y84.717 E14.16633
G1 X101.362 Y84.124 E14.19637
G1 X102.094 Y83.594 E14.22642
G1 X102.869 Y83.131 E14.25645
G1 X103.682 Y82.738 E14.28648
G1 X104.527 Y82.418 E14.31654
G1 X105.396 Y82.175 E14.34655
G1 X106.284 Y82.009 E14.37659
G1 X107.423 Y81.913 E14.41461
G1 X108.03 Y81.9 E14.43481
G1 X126.593 Y81.9 E15.05221
G1 X127.437 Y81.911 E15.08029
G1 X128.339 Y81.964 E15.11034
G1 X129.232 Y82.096 E15.14036
G1 X130.11 Y82.307 E15.1704
G1 X130.966 Y82.595 E15.20044
G1 X131.793 Y82.957 E15.23046
G1 X132.585 Y83.392 E15.26052
G1 X133.336 Y83.894 E15.29056
G1 X134.039 Y84.461 E15.3206
G1 X134.689 Y85.088 E15.35064
G1 X135.281 Y85.77 E15.38068
G1 X135.811 Y86.501 E15.41071
G1 X136.273 Y87.277 E15.44074
G1 X136.666 Y88.09 E15.47078
G1 X136.984 Y88.935 E15.50081
G1 X137.227 Y89.805 E15.53085
G1 X137.392 Y90.693 E15.56089
G1 X137.487 Y91.823 E15.59861
G1 X137.5 Y92.43 E15.6188
G1 X137.499 Y142.29 E17.27715
G1 X137.49 Y143.017 E17.30133
G1 X137.439 Y143.919 E17.33138
G1 X137.308 Y144.813 E17.36144
G1 X137.099 Y145.691 E17.39145
G1 X136.813 Y146.548 E17.4215
G1 X136.452 Y147.376 E17.45155
G1 X136.02 Y148.168 E17.48155
G1 X135.519 Y148.92 E17.51161
G1 X134.953 Y149.624 E17.54165
G1 X134.328 Y150.275 E17.57167
G1 X133.647 Y150.869 E17.60172
G1 X132.916 Y151.4 E17.63177
G1 X132.142 Y151.864 E17.66179
G1 X131.329 Y152.258 E17.69184
G1 X130.485 Y152.578 E17.72186
G1 X129.615 Y152.823 E17.75192
G1 X128.728 Y152.989 E17.78193
G1 X127.577 Y153.087 E17.82035
G1 X126.97 Y153.1 E17.84055
G1 X108.275 Y153.099 E18.46235
G1 X107.577 Y153.09 E18.48556
G1 X106.676 Y153.039 E18.51558
G1 X105.782 Y152.907 E18.54564
G1 X104.904 Y152.698 E18.57565
G1 X104.047 Y152.411 E18.60571
G1 X103.22 Y152.05 E18.63573
G1 X102.427 Y151.617 E18.66578
G1 X101.676 Y151.116 E18.6958
G1 X100.972 Y150.55 E18.72585
G1 X100.321 Y149.924 E18.75589
G1 X99.728 Y149.243 E18.78592
G1 X99.198 Y148.512 E18.81595
G1 X98.734 Y147.737 E18.846
G1 X98.34 Y146.924 E18.87604
G1 X98.02 Y146.08 E18.90607
G1 X97.776 Y145.21 E18.93612
G1 X97.61 Y144.322 E18.96616
G1 X97.513 Y143.167 E19.00472
G1 X97.5 Y142.558 E19.02498
G1 X97.501 Y92.636 E20.68539
G1 F2700 E15.68539
;MESH:vm-shell_2.4.0.stl
G0 F6000 X114.596 Y99.893
G0 X116.664 Y101.486
;TYPE:WALL-INNER
G1 F2700 E20.68539
G1 F1200 X116.211 Y101.305 E20.70161
G1 X115.971 Y101.177 E20.71066
G1 X115.712 Y101.004 E20.72102
G1 X115.5 Y100.829 E20.73016
G1 X115.22 Y100.549 E20.74333
G1 X115.087 Y100.396 E20.75008
G1 X114.973 Y100.217 E20.75713
G1 X114.693 Y99.691 E20.77695
G1 X114.62 Y99.431 E20.78593
G1 X114.512 Y98.903 E20.80386
G1 X114.512 Y98.449 E20.81896
G1 X114.539 Y98.175 E20.82812
G1 X114.616 Y97.784 E20.84137
G1 X114.696 Y97.522 E20.85048
G1 X114.963 Y96.999 E20.87001
G1 X115.206 Y96.665 E20.88375
G1 X115.49 Y96.378 E20.89718
G1 X115.711 Y96.196 E20.9067
G1 X115.968 Y96.025 E20.91697
G1 X116.201 Y95.899 E20.92578
G1 X116.489 Y95.779 E20.93616
G1 X116.757 Y95.696 E20.94549
G1 X117.201 Y95.608 E20.96054
G1 X117.65 Y95.608 E20.97548
G1 X117.924 Y95.634 E20.98463
G1 X118.316 Y95.712 E20.99793
G1 X118.7 Y95.849 E21.01149
G1 X119.11 Y96.067 E21.02693
G1 X119.442 Y96.314 E21.04069
G1 X119.784 Y96.654 E21.05673
G1 X120.032 Y96.991 E21.07065
G1 X120.262 Y97.427 E21.08705
G1 X120.404 Y97.875 E21.10268
G1 X120.458 Y98.147 E21.1119
G1 X120.504 Y98.603 E21.12714
G1 X120.439 Y99.209 E21.14741
G1 X120.312 Y99.624 E21.16185
G1 X120.212 Y99.866 E21.17056
G1 X120.032 Y100.208 E21.18341
G1 X119.885 Y100.444 E21.19266
G1 X119.502 Y100.828 E21.2107
G1 X119.289 Y101.003 E21.21987
G1 X118.966 Y101.219 E21.23279
G1 X118.723 Y101.356 E21.24207
G1 X118.118 Y101.54 E21.2631
G1 X117.563 Y101.602 E21.28168
G1 X117.223 Y101.594 E21.29299
G1 X116.664 Y101.486 E21.31192
G0 F6000 X117.367 Y101.218
G1 F1200 X116.736 Y101.091 E21.33333
G1 X116.276 Y100.899 E21.34991
G1 X115.85 Y100.615 E21.36694
G1 X115.502 Y100.267 E21.38331
G1 X115.408 Y100.157 E21.38812
G1 X115.327 Y100.029 E21.39316
G1 X115.041 Y99.493 E21.41337
G1 X114.912 Y98.863 E21.43475
G1 X114.912 Y98.348 E21.45188
G1 X115.034 Y97.738 E21.47257
G1 X115.317 Y97.185 E21.49324
G1 X115.491 Y96.946 E21.50307
G1 X115.846 Y96.586 E21.51988
G1 X116.275 Y96.302 E21.537
G1 X116.739 Y96.108 E21.55372
G1 X117.239 Y96.008 E21.57068
G1 X117.757 Y96.008 E21.58791
G1 X118.238 Y96.105 E21.60423
G1 X118.512 Y96.202 E21.6139
G1 X118.922 Y96.42 E21.62934
G1 X119.16 Y96.596 E21.63919
G1 X119.501 Y96.937 E21.65523
G1 X119.678 Y97.178 E21.66517
G1 X119.905 Y97.62 E21.6817
G1 X120.049 Y98.077 E21.69764
G1 X120.102 Y98.599 E21.71509
G1 X120.047 Y99.126 E21.73271
G1 X119.904 Y99.591 E21.74889
G1 X119.607 Y100.156 E21.77012
G1 X119.148 Y100.616 E21.79174
G1 X118.62 Y100.969 E21.81286
G1 X117.998 Y101.157 E21.83447
G1 X117.367 Y101.218 E21.85556
G0 F6000 X117.391 Y100.814
G1 F1200 X116.861 Y100.706 E21.87355
G1 X116.465 Y100.545 E21.88777
G1 X116.104 Y100.303 E21.90222
G1 X115.785 Y99.984 E21.91723
G1 X115.728 Y99.918 E21.92013
G1 X115.68 Y99.841 E21.92314
G1 X115.427 Y99.354 E21.9414
G1 X115.312 Y98.826 E21.95937
G1 X115.312 Y98.386 E21.974
G1 X115.416 Y97.865 E21.99167
G1 X115.713 Y97.291 E22.01317
G1 X116.101 Y96.897 E22.03156
G1 X116.46 Y96.658 E22.04591
G1 X116.854 Y96.493 E22.06011
G1 X117.278 Y96.408 E22.0745
G1 X117.713 Y96.408 E22.08896
G1 X118.245 Y96.514 E22.10701
G1 X118.815 Y96.817 E22.12848
G1 X119.283 Y97.285 E22.15049
G1 X119.532 Y97.766 E22.16851
G1 X119.656 Y98.163 E22.18234
G1 X119.7 Y98.598 E22.19688
G1 X119.657 Y99.017 E22.21089
G1 X119.531 Y99.443 E22.22567
G1 X119.276 Y99.913 E22.24345
G1 X118.898 Y100.302 E22.26149
G1 X118.462 Y100.593 E22.27893
G1 X117.926 Y100.762 E22.29762
G1 X117.391 Y100.814 E22.3155
G0 F6000 X117.404 Y100.408
;TYPE:WALL-OUTER
G1 F1200 X116.977 Y100.323 E22.32998
G1 X116.637 Y100.179 E22.34226
G1 X116.378 Y100.006 E22.35262
G1 X116.049 Y99.679 E22.36805
G1 X115.803 Y99.218 E22.38542
G1 X115.714 Y98.794 E22.39983
G1 X115.715 Y98.409 E22.41264
G1 X115.798 Y97.991 E22.42681
G1 X116.04 Y97.529 E22.44416
G1 X116.344 Y97.221 E22.45855
G1 X116.666 Y97.006 E22.47143
G1 X116.992 Y96.873 E22.48314
G1 X117.307 Y96.81 E22.49383
G1 X117.69 Y96.811 E22.50657
G1 X118.108 Y96.894 E22.52074
G1 X118.574 Y97.142 E22.5383
G1 X118.956 Y97.524 E22.55626
G1 X119.16 Y97.912 E22.57084
G1 X119.257 Y98.227 E22.58181
G1 X119.296 Y98.578 E22.59355
G1 X119.263 Y98.948 E22.60591
G1 X119.165 Y99.272 E22.61717
G1 X118.954 Y99.675 E22.6323
G1 X118.622 Y100.006 E22.64789
G1 X118.272 Y100.237 E22.66184
G1 X117.851 Y100.366 E22.67648
G1 X117.404 Y100.408 E22.69142
G1 F2700 E17.69142
G0 F6000 X117.267 Y101.094
G0 X117.43 Y101.788
G0 X117.453 Y112.42
G0 X120.207 Y114.145
G0 X120.809 Y114.747
G0 X121.281 Y115.454
G0 X121.608 Y116.241
G0 X121.774 Y117.099
G0 X121.772 Y117.924
G0 X121.608 Y118.76
G0 X121.281 Y119.546
G0 X120.809 Y120.253
G0 X120.207 Y120.855
G0 X119.806 Y121.122
G0 X117.459 Y122.403
;TYPE:WALL-INNER
G1 F2700 E22.69142
G1 F1200 X116.983 Y122.378 E22.70727
G1 X116.505 Y122.309 E22.72333
G1 X116.039 Y122.193 E22.7393
G1 X115.638 Y122.051 E22.75345
G1 X115.136 Y121.822 E22.77181
G1 X114.678 Y121.538 E22.78973
G1 X114.344 Y121.292 E22.80353
G1 X113.981 Y120.963 E22.81982
G1 X113.621 Y120.553 E22.83797
G1 X113.415 Y120.274 E22.8495
G1 X113.127 Y119.809 E22.86769
G1 X112.903 Y119.315 E22.88574
G1 X112.758 Y118.915 E22.89989
G1 X112.641 Y118.426 E22.91661
G1 X112.571 Y117.912 E22.93386
G1 X112.554 Y117.431 E22.94987
G1 X112.571 Y117.088 E22.96129
G1 X112.635 Y116.609 E22.97737
G1 X112.757 Y116.088 E22.99516
G1 X112.903 Y115.685 E23.00942
G1 X113.127 Y115.191 E23.02746
G1 X113.415 Y114.726 E23.04565
G1 X113.621 Y114.447 E23.05719
G1 X113.937 Y114.087 E23.07312
G1 X114.34 Y113.71 E23.09148
G1 X114.784 Y113.392 E23.10964
G1 X115.137 Y113.178 E23.12337
G1 X115.517 Y112.999 E23.13734
G1 X115.963 Y112.832 E23.15318
G1 X116.487 Y112.695 E23.17119
G1 X116.974 Y112.623 E23.18757
G1 X117.459 Y112.597 E23.20372
G1 X117.998 Y112.631 E23.22169
G1 X118.41 Y112.693 E23.23554
G1 X118.809 Y112.791 E23.24921
G1 X119.267 Y112.949 E23.26532
G1 X119.764 Y113.174 E23.28347
G1 X120.226 Y113.461 E23.30156
G1 X120.566 Y113.71 E23.31557
G1 X120.966 Y114.083 E23.33376
G1 X121.247 Y114.393 E23.34768
G1 X121.56 Y114.829 E23.36553
G1 X121.782 Y115.195 E23.37977
G1 X122.003 Y115.681 E23.39753
G1 X122.165 Y116.151 E23.41406
G1 X122.277 Y116.64 E23.43075
G1 X122.337 Y117.11 E23.44651
G1 X122.354 Y117.499 E23.45946
G1 X122.335 Y117.912 E23.47321
G1 X122.266 Y118.426 E23.49046
G1 X122.149 Y118.915 E23.50718
G1 X122.004 Y119.315 E23.52133
G1 X121.78 Y119.81 E23.5394
G1 X121.492 Y120.272 E23.55751
G1 X121.243 Y120.612 E23.57153
G1 X120.872 Y121.011 E23.58965
G1 X120.56 Y121.295 E23.60368
G1 X120.122 Y121.609 E23.6216
G1 X119.828 Y121.786 E23.63302
G1 X119.701 Y121.854 E23.63781
G1 X119.267 Y122.051 E23.65366
G1 X118.874 Y122.191 E23.66754
G1 X118.39 Y122.311 E23.68412
G1 X117.994 Y122.37 E23.69744
G1 X117.459 Y122.403 E23.71527
G0 F6000 X117.061 Y121.983
G1 F1200 X116.581 Y121.916 E23.73139
G1 X116.099 Y121.792 E23.74794
G1 X115.686 Y121.638 E23.7626
G1 X115.284 Y121.443 E23.77746
G1 X114.915 Y121.216 E23.79187
G1 X114.638 Y121.012 E23.80331
G1 X114.305 Y120.717 E23.81811
G1 X114.005 Y120.391 E23.83284
G1 X113.737 Y120.037 E23.84761
G1 X113.46 Y119.575 E23.86553
G1 X113.279 Y119.179 E23.88001
G1 X113.162 Y118.856 E23.89144
G1 X113.035 Y118.357 E23.90856
G1 X112.97 Y117.892 E23.92418
G1 X112.953 Y117.451 E23.93886
G1 X112.97 Y117.108 E23.95028
G1 X113.031 Y116.668 E23.96505
G1 X113.132 Y116.244 E23.97955
G1 X113.279 Y115.821 E23.99445
G1 X113.46 Y115.425 E24.00893
G1 X113.737 Y114.963 E24.02684
G1 X114.005 Y114.609 E24.04161
G1 X114.305 Y114.283 E24.05635
G1 X114.64 Y113.987 E24.07121
G1 X114.991 Y113.734 E24.08561
G1 X115.283 Y113.557 E24.09696
G1 X115.687 Y113.361 E24.1119
G1 X116.099 Y113.208 E24.12652
G1 X116.525 Y113.096 E24.14117
G1 X117.013 Y113.021 E24.15759
G1 X117.503 Y113.001 E24.1739
G1 X117.898 Y113.022 E24.18705
