;FLAVOR:Marlin
;TIME:1090
;Filament used: 0.527888m
;Layer height: 0.2
;MINX:98.5
;MINY:82
;MINZ:0.2
;MAXX:136.5
;MAXY:153
;MAXZ:5.8
;POSTPROCESSED
;Generated with Cura_SteamEngine main
M140 S35
M105
M190 S35
M104 S200
M105
M109 S200
M82 ;absolute extrusion mode
; Ender 3 Custom Start G-code
G92 E0 ; Reset Extruder
G28 ; Home all axes
G1 Z2.0 F3000 ; Move Z Axis up little to prevent scratching of Heat Bed
G1 X0.1 Y20 Z0.3 F5000.0 ; Move to start position
G1 X0.1 Y200.0 Z0.3 F1500.0 E15 ; Draw the first line
G1 X0.4 Y200.0 Z0.3 F5000.0 ; Move to side a little
G1 X0.4 Y20 Z0.3 F1500.0 E30 ; Draw the second line
G92 E0 ; Reset Extruder
G1 Z2.0 F3000 ; Move Z Axis up little to prevent scratching of Heat Bed
G1 X5 Y20 Z0.3 F5000.0 ; Move over to prevent blob squish
G92 E0
G92 E0
G1 F2700 E-5
;LAYER_COUNT:29
;LAYER:0
M107
G0 F6000 X101.066 Y85.958 Z0.2
G0 X98.501 Y93.525
;TYPE:SKIRT
G1 F2700 E0
G1 F1200 X98.51 Y92.86 E0.02212
G1 X98.563 Y91.924 E0.0533
G1 X98.695 Y90.995 E0.08451
G1 X98.906 Y90.081 E0.11571
G1 X99.194 Y89.189 E0.14689
G1 X99.557 Y88.324 E0.17809
G1 X99.992 Y87.493 E0.20928
G1 X100.496 Y86.703 E0.24045
G1 X101.066 Y85.958 E0.27165
G1 X101.698 Y85.264 E0.30287
G1 X102.386 Y84.627 E0.33405
G1 X103.126 Y84.051 E0.36524
G1 X103.912 Y83.539 E0.39644
G1 X104.739 Y83.097 E0.42763
G1 X105.601 Y82.727 E0.45883
G1 X106.491 Y82.431 E0.49003
G1 X107.403 Y82.213 E0.52122
G1 X108.33 Y82.072 E0.5524
G1 X109.201 Y82.013 E0.58144
G1 X109.83 Y82 E0.60236
G1 X124.951 Y82.001 E1.10529
G1 X125.649 Y82.011 E1.12851
G1 X126.585 Y82.065 E1.15969
G1 X127.513 Y82.197 E1.19087
G1 X128.427 Y82.409 E1.22207
G1 X129.319 Y82.698 E1.25326
G1 X130.184 Y83.061 E1.28446
G1 X131.014 Y83.497 E1.31564
G1 X131.805 Y84.002 E1.34686
G1 X132.549 Y84.573 E1.37805
G1 X133.242 Y85.205 E1.40925
G1 X133.879 Y85.893 E1.44043
G1 X134.454 Y86.634 E1.47163
G1 X134.965 Y87.42 E1.50281
G1 X135.407 Y88.248 E1.53403
G1 X135.776 Y89.11 E1.56521
G1 X136.071 Y90 E1.5964
G1 X136.289 Y90.912 E1.62759
G1 X136.429 Y91.84 E1.6588
G1 X136.487 Y92.701 E1.6875
G1 X136.5 Y93.33 E1.70843
G1 X136.499 Y103.439 E2.04465
G1 X136.488 Y104.172 E2.06904
G1 X136.4 Y105.406 E2.11018
G1 X136.3 Y106.186 E2.13634
G1 X136.016 Y108.684 E2.21996
G1 X135.803 Y111.19 E2.30361
G1 X135.658 Y113.722 E2.38796
G1 X135.587 Y116.207 E2.47065
G1 X135.587 Y118.731 E2.55459
G1 X135.658 Y121.255 E2.63858
G1 X135.799 Y123.773 E2.72246
G1 X136.013 Y126.288 E2.80641
G1 X136.299 Y128.814 E2.89096
G1 X136.399 Y129.585 E2.91682
G1 X136.485 Y130.667 E2.95292
G1 X136.5 Y131.33 E2.97498
G1 X136.499 Y141.4 E3.30991
G1 X136.49 Y142.127 E3.33409
G1 X136.439 Y143.064 E3.3653
G1 X136.307 Y143.992 E3.39647
G1 X136.098 Y144.906 E3.42766
G1 X135.811 Y145.799 E3.45886
G1 X135.449 Y146.665 E3.49008
G1 X135.015 Y147.496 E3.52126
G1 X134.511 Y148.287 E3.55245
G1 X133.942 Y149.032 E3.58363
G1 X133.311 Y149.727 E3.61485
G1 X132.624 Y150.365 E3.64604
G1 X131.885 Y150.942 E3.67722
G1 X131.099 Y151.454 E3.70842
G1 X130.273 Y151.897 E3.73959
G1 X129.411 Y152.269 E3.77082
G1 X128.522 Y152.565 E3.80198
G1 X127.61 Y152.785 E3.83319
G1 X126.683 Y152.926 E3.86437
G1 X125.799 Y152.987 E3.89385
G1 X125.17 Y153 E3.91477
G1 X110.065 Y152.999 E4.41717
G1 X109.367 Y152.99 E4.44038
G1 X108.431 Y152.938 E4.47156
G1 X107.502 Y152.806 E4.50277
G1 X106.588 Y152.596 E4.53396
G1 X105.695 Y152.309 E4.56516
G1 X104.83 Y151.946 E4.59636
G1 X103.999 Y151.512 E4.62754
G1 X103.208 Y151.008 E4.65874
G1 X102.463 Y150.438 E4.68994
G1 X101.769 Y149.807 E4.72114
G1 X101.132 Y149.12 E4.7523
G1 X100.555 Y148.38 E4.78351
G1 X100.043 Y147.594 E4.81471
G1 X99.6 Y146.767 E4.84591
G1 X99.229 Y145.906 E4.87709
G1 X98.933 Y145.016 E4.90829
G1 X98.714 Y144.104 E4.93948
G1 X98.573 Y143.177 E4.97067
G1 X98.513 Y142.288 E5.00031
G1 X98.5 Y141.658 E5.02126
G1 X98.501 Y131.538 E5.35786
G1 X98.512 Y130.824 E5.38161
G1 X98.6 Y129.594 E5.42262
G1 X98.7 Y128.814 E5.44878
G1 X98.984 Y126.316 E5.5324
G1 X99.197 Y123.81 E5.61605
G1 X99.342 Y121.278 E5.7004
G1 X99.413 Y118.793 E5.78308
G1 X99.413 Y116.269 E5.86703
G1 X99.342 Y113.745 E5.95102
G1 X99.2 Y111.223 E6.03503
G1 X98.988 Y108.718 E6.11864
G1 X98.692 Y106.111 E6.20591
G1 X98.6 Y105.398 E6.22982
G1 X98.513 Y104.299 E6.26649
G1 X98.5 Y103.67 E6.28741
G1 X98.501 Y93.525 E6.62484
G0 F6000 X98.901 Y93.531
G1 F1200 X98.91 Y92.866 E6.64696
G1 X98.962 Y91.946 E6.67761
G1 X99.094 Y91.035 E6.70822
G1 X99.305 Y90.139 E6.73884
G1 X99.592 Y89.264 E6.76947
G1 X99.955 Y88.418 E6.80009
G1 X100.389 Y87.606 E6.83071
G1 X100.892 Y86.835 E6.86133
G1 X101.461 Y86.111 E6.89195
G1 X102.089 Y85.439 E6.92255
G1 X102.774 Y84.823 E6.95319
G1 X103.51 Y84.27 E6.98381
G1 X104.291 Y83.782 E7.01444
G1 X105.111 Y83.364 E7.04505
G1 X105.965 Y83.019 E7.07568
G1 X106.845 Y82.749 E7.1063
G1 X107.745 Y82.557 E7.13691
G1 X108.659 Y82.443 E7.16754
G1 X109.212 Y82.413 E7.18596
G1 X109.83 Y82.4 E7.20652
G1 X124.793 Y82.4 E7.70419
G1 X125.643 Y82.411 E7.73247
G1 X126.562 Y82.464 E7.76308
G1 X127.473 Y82.597 E7.7937
G1 X128.369 Y82.808 E7.82432
G1 X129.243 Y83.096 E7.85493
G1 X130.09 Y83.459 E7.88558
G1 X130.901 Y83.894 E7.91619
G1 X131.671 Y84.398 E7.94679
G1 X132.395 Y84.967 E7.97742
G1 X133.067 Y85.597 E8.00806
G1 X133.682 Y86.282 E8.03868
G1 X134.235 Y87.018 E8.0693
G1 X134.722 Y87.799 E8.09991
G1 X135.139 Y88.62 E8.13054
G1 X135.484 Y89.474 E8.16117
G1 X135.753 Y90.354 E8.19178
G1 X135.945 Y91.255 E8.22242
G1 X136.058 Y92.168 E8.25301
G1 X136.087 Y92.712 E8.27113
G1 X136.1 Y93.33 E8.29169
G1 X136.099 Y103.433 E8.62772
G1 X136.088 Y104.166 E8.6521
G1 X136.003 Y105.355 E8.69175
G1 X135.912 Y106.063 E8.71549
G1 X135.619 Y108.642 E8.80182
G1 X135.404 Y111.167 E8.88611
G1 X135.26 Y113.689 E8.97013
G1 X135.187 Y116.231 E9.05471
G1 X135.187 Y118.742 E9.13822
G1 X135.258 Y121.29 E9.223
G1 X135.399 Y123.794 E9.30642
G1 X135.614 Y126.331 E9.3911
G1 X135.902 Y128.865 E9.47593
G1 X136.002 Y129.637 E9.50182
G1 X136.085 Y130.679 E9.53658
G1 X136.1 Y131.33 E9.55824
G1 X136.099 Y141.395 E9.89301
G1 X136.09 Y142.122 E9.91719
G1 X136.039 Y143.041 E9.9478
G1 X135.908 Y143.953 E9.97844
G1 X135.698 Y144.849 E10.00905
G1 X135.412 Y145.724 E10.03967
G1 X135.051 Y146.571 E10.07029
G1 X134.617 Y147.383 E10.10092
G1 X134.115 Y148.155 E10.13155
G1 X133.547 Y148.88 E10.16218
G1 X132.919 Y149.553 E10.19279
G1 X132.235 Y150.169 E10.22341
G1 X131.5 Y150.723 E10.25402
G1 X130.72 Y151.212 E10.28464
G1 X129.9 Y151.631 E10.31527
G1 X129.047 Y151.977 E10.34589
G1 X128.167 Y152.248 E10.37651
G1 X127.267 Y152.441 E10.40713
G1 X126.353 Y152.556 E10.43777
G1 X125.788 Y152.587 E10.45659
G1 X125.17 Y152.6 E10.47714
G1 X110.07 Y152.599 E10.97937
G1 X109.372 Y152.59 E11.00259
G1 X108.453 Y152.538 E11.03321
G1 X107.542 Y152.407 E11.06382
G1 X106.646 Y152.197 E11.09443
G1 X105.771 Y151.91 E11.12505
G1 X104.924 Y151.548 E11.15569
G1 X104.112 Y151.114 E11.18631
G1 X103.341 Y150.612 E11.21691
G1 X102.616 Y150.044 E11.24755
G1 X101.943 Y149.415 E11.27818
G1 X101.328 Y148.731 E11.30878
G1 X100.774 Y147.996 E11.33939
G1 X100.286 Y147.215 E11.37002
G1 X99.867 Y146.395 E11.40065
G1 X99.521 Y145.542 E11.43126
G1 X99.251 Y144.662 E11.46188
G1 X99.058 Y143.761 E11.49253
G1 X98.944 Y142.848 E11.52313
G1 X98.913 Y142.277 E11.54215
G1 X98.9 Y141.658 E11.56274
G1 X98.901 Y131.544 E11.89913
G1 X98.912 Y130.83 E11.92288
G1 X98.997 Y129.645 E11.9624
G1 X99.088 Y128.937 E11.98614
G1 X99.381 Y126.358 E12.07247
G1 X99.596 Y123.833 E12.15676
G1 X99.74 Y121.311 E12.24078
G1 X99.813 Y118.769 E12.32536
G1 X99.813 Y116.258 E12.40887
G1 X99.742 Y113.71 E12.49365
G1 X99.601 Y111.203 E12.57717
G1 X99.386 Y108.675 E12.66155
G1 X99.098 Y106.135 E12.74658
G1 X98.996 Y105.347 E12.773
G1 X98.913 Y104.288 E12.80833
G1 X98.9 Y103.67 E12.82889
G1 X98.901 Y93.531 E13.16612
G0 F6000 X99.301 Y93.536
G1 F1200 X99.31 Y92.871 E13.18824
G1 X99.362 Y91.969 E13.21829
G1 X99.494 Y91.076 E13.24831
G1 X99.704 Y90.198 E13.27834
G1 X99.991 Y89.341 E13.3084
G1 X100.353 Y88.514 E13.33842
G1 X100.786 Y87.722 E13.36845
G1 X101.288 Y86.971 E13.39849
G1 X101.855 Y86.267 E13.42856
G1 X102.481 Y85.617 E13.45857
G1 X103.162 Y85.024 E13.4886
G1 X103.894 Y84.494 E13.51866
G1 X104.669 Y84.031 E13.54869
G1 X105.482 Y83.638 E13.57872
G1 X106.327 Y83.318 E13.60878
G1 X107.196 Y83.075 E13.63879
G1 X108.084 Y82.909 E13.66883
G1 X109.223 Y82.813 E13.70685
G1 X109.83 Y82.8 E13.72705
G1 X124.793 Y82.8 E14.22472
G1 X125.637 Y82.811 E14.25279
G1 X126.539 Y82.864 E14.28284
G1 X127.432 Y82.996 E14.31287
G1 X128.31 Y83.207 E14.3429
G1 X129.166 Y83.495 E14.37294
G1 X129.993 Y83.857 E14.40297
G1 X130.785 Y84.292 E14.43302
G1 X131.536 Y84.794 E14.46306
G1 X132.239 Y85.361 E14.4931
G1 X132.889 Y85.988 E14.52314
G1 X133.481 Y86.67 E14.55318
G1 X134.011 Y87.401 E14.58321
G1 X134.473 Y88.177 E14.61325
G1 X134.866 Y88.99 E14.64328
G1 X135.184 Y89.835 E14.67331
G1 X135.427 Y90.705 E14.70335
G1 X135.592 Y91.593 E14.73339
G1 X135.687 Y92.723 E14.77111
G1 X135.7 Y93.33 E14.79131
G1 X135.699 Y103.427 E15.12713
G1 X135.688 Y104.16 E15.15152
G1 X135.606 Y105.304 E15.18966
G1 X135.524 Y105.941 E15.21102
G1 X135.217 Y108.634 E15.30117
G1 X135.004 Y111.147 E15.38506
G1 X134.86 Y113.655 E15.46861
G1 X134.787 Y116.219 E15.55392
G1 X134.787 Y118.753 E15.6382
G1 X134.858 Y121.287 E15.72252
G1 X135 Y123.817 E15.8068
G1 X135.217 Y126.374 E15.89215
G1 X135.511 Y128.963 E15.97882
G1 X135.605 Y129.688 E16.00313
G1 X135.685 Y130.691 E16.0366
G1 X135.7 Y131.33 E16.05786
G1 X135.699 Y141.39 E16.39245
G1 X135.69 Y142.117 E16.41663
G1 X135.639 Y143.019 E16.44668
G1 X135.508 Y143.913 E16.47673
G1 X135.299 Y144.791 E16.50675
G1 X135.013 Y145.648 E16.5368
G1 X134.652 Y146.476 E16.56685
G1 X134.22 Y147.268 E16.59685
G1 X133.719 Y148.02 E16.62691
G1 X133.153 Y148.724 E16.65695
G1 X132.528 Y149.375 E16.68697
G1 X131.847 Y149.969 E16.71702
G1 X131.116 Y150.5 E16.74707
G1 X130.342 Y150.964 E16.77709
G1 X129.529 Y151.358 E16.80714
G1 X128.685 Y151.678 E16.83716
G1 X127.815 Y151.923 E16.86722
G1 X126.928 Y152.089 E16.89723
G1 X125.777 Y152.187 E16.93565
G1 X125.17 Y152.2 E16.95585
G1 X110.075 Y152.199 E17.45791
G1 X109.377 Y152.19 E17.48113
G1 X108.476 Y152.139 E17.51114
G1 X107.582 Y152.007 E17.5412
G1 X106.704 Y151.798 E17.57122
G1 X105.847 Y151.511 E17.60128
G1 X105.02 Y151.15 E17.63129
G1 X104.227 Y150.717 E17.66134
G1 X103.476 Y150.216 E17.69137
G1 X102.772 Y149.65 E17.72141
G1 X102.121 Y149.024 E17.75145
G1 X101.528 Y148.343 E17.78148
G1 X100.998 Y147.612 E17.81152
G1 X100.534 Y146.837 E17.84156
G1 X100.14 Y146.024 E17.87161
G1 X99.82 Y145.18 E17.90163
G1 X99.576 Y144.31 E17.93168
G1 X99.41 Y143.422 E17.96173
G1 X99.313 Y142.267 E18.00028
G1 X99.3 Y141.658 E18.02054
G1 X99.301 Y131.55 E18.35673
G1 X99.312 Y130.836 E18.38048
G1 X99.394 Y129.696 E18.4185
G1 X99.48 Y129.025 E18.441
G1 X99.783 Y126.366 E18.53001
G1 X99.996 Y123.853 E18.61389
G1 X100.14 Y121.345 E18.69744
G1 X100.213 Y118.781 E18.78276
G1 X100.213 Y116.247 E18.86704
G1 X100.142 Y113.713 E18.95135
G1 X100 Y111.183 E19.03563
G1 X99.783 Y108.629 E19.12089
G1 X99.49 Y106.05 E19.20722
G1 X99.393 Y105.296 E19.2325
G1 X99.313 Y104.277 E19.2665
G1 X99.3 Y103.67 E19.28669
G1 X99.301 Y93.536 E19.62375
G1 F2700 E14.62375
;MESH:vm-spring_2.4.0.stl
G0 F6000 X108.835 Y93.536
G0 X109.92 Y93.536
G0 X111.073 Y102.427
G0 X115.275 Y103.9
;TYPE:WALL-INNER
G1 F2700 E19.62375
G1 F1200 X119.819 Y103.899 E19.77488
G1 X119.931 Y103.399 E19.79193
G1 X120.137 Y103.061 E19.80509
G1 X120.527 Y102.753 E19.82162
G1 X120.974 Y102.605 E19.83728
G1 X124.1 Y102.6 E19.94125
G1 X124.1 Y94.4 E20.21398
G1 X110.901 Y94.401 E20.65299
G1 X110.901 Y102.599 E20.92565
G1 X113.977 Y102.602 E21.02796
G1 X114.257 Y102.646 E21.03739
G1 X114.579 Y102.764 E21.04879
G1 X114.947 Y103.045 E21.06419
G1 X115.163 Y103.4 E21.07801
G1 X115.275 Y103.9 E21.09506
G0 F6000 X114.897 Y104.3
G1 F1200 X120.197 Y104.3 E21.27134
G1 X120.197 Y104 E21.28131
G1 X120.293 Y103.571 E21.29594
G1 X120.497 Y103.284 E21.30765
G1 X120.792 Y103.085 E21.31948
G1 X121.106 Y103.003 E21.33028
G1 X124.5 Y103 E21.44316
G1 X124.5 Y94 E21.7425
G1 X110.501 Y94.001 E22.20811
G1 X110.501 Y102.999 E22.50739
G1 X113.954 Y103.001 E22.62223
G1 X114.324 Y103.095 E22.63493
G1 X114.591 Y103.276 E22.64566
G1 X114.801 Y103.571 E22.6577
G1 X114.897 Y104 E22.67232
G1 X114.897 Y104.3 E22.6823
G0 F6000 X114.497 Y104.7
G1 F1200 X120.797 Y104.7 E22.89184
G1 X120.597 Y104.5 E22.90125
G1 X120.597 Y104 E22.91788
G1 X120.654 Y103.742 E22.92667
G1 X120.78 Y103.567 E22.93384
G1 X120.954 Y103.451 E22.94079
G1 X121.142 Y103.402 E22.94726
G1 X124.9 Y103.4 E23.07225
G1 X124.9 Y93.6 E23.3982
G1 X110.101 Y93.601 E23.89041
G1 X110.101 Y103.399 E24.2163
G1 X113.932 Y103.4 E24.34372
G1 X114.153 Y103.457 E24.35131
G1 X114.314 Y103.565 E24.35776
G1 X114.44 Y103.743 E24.36501
G1 X114.497 Y104 E24.37376
G1 X114.497 Y104.7 E24.39705
G1 F2700 E19.39705
G0 F6000 X114.767 Y104.43
G0 X117.678 Y103.7
G0 X117.628 Y102.682
G0 X118.182 Y102.441
G1 F2700 E24.39705
G1 F1200 X117.513 Y102.512 E24.41942
G1 X117.197 Y102.482 E24.42998
G1 X116.808 Y102.406 E24.44316
G1 X116.543 Y102.325 E24.45238
G1 X116.098 Y102.132 E24.46851
G1 X115.687 Y101.858 E24.48494
G1 X115.468 Y101.684 E24.49424
G1 X115.066 Y101.195 E24.5153
G1 X114.832 Y100.768 E24.53149
G1 X114.732 Y100.527 E24.54017
G1 X114.578 Y100.032 E24.55741
G1 X114.554 Y99.738 E24.56723
G1 X114.554 Y99.262 E24.58306
G1 X114.615 Y98.849 E24.59694
G1 X114.732 Y98.473 E24.61004
G1 X114.833 Y98.228 E24.61885
G1 X115.06 Y97.813 E24.63459
G1 X115.386 Y97.416 E24.65167
G1 X115.683 Y97.146 E24.66502
G1 X116.068 Y96.886 E24.68047
G1 X116.443 Y96.707 E24.69429
G1 X116.927 Y96.559 E24.71113
G1 X117.471 Y96.498 E24.72934
G1 X117.62 Y96.491 E24.7343
G1 X117.893 Y96.517 E24.74342
G1 X118.286 Y96.595 E24.75674
G1 X118.55 Y96.675 E24.76592
G1 X118.837 Y96.794 E24.77625
G1 X119.073 Y96.92 E24.78515
G1 X119.327 Y97.088 E24.79528
G1 X119.54 Y97.261 E24.80441
G1 X119.773 Y97.492 E24.81532
G1 X119.953 Y97.711 E24.82475
G1 X120.166 Y98.031 E24.83753
G1 X120.339 Y98.397 E24.851
G1 X120.456 Y98.776 E24.86419
G1 X120.509 Y99.046 E24.87334
G1 X120.559 Y99.535 E24.88969
G1 X120.535 Y99.816 E24.89907
G1 X120.421 Y100.385 E24.91837
G1 X120.216 Y100.881 E24.93622
G1 X119.959 Y101.281 E24.95204
G1 X119.786 Y101.493 E24.96114
G1 X119.417 Y101.855 E24.97833
G1 X118.92 Y102.172 E24.99794
G1 X118.476 Y102.355 E25.01391
G1 X118.182 Y102.441 E25.0241
G0 F6000 X116.786 Y101.993
G1 F1200 X116.322 Y101.795 E25.04088
G1 X115.786 Y101.444 E25.06219
G1 X115.38 Y100.938 E25.08376
G1 X115.142 Y100.5 E25.10034
G1 X114.954 Y99.89 E25.12157
G1 X114.954 Y99.262 E25.14246
G1 X114.998 Y98.967 E25.15238
G1 X115.144 Y98.492 E25.16891
G1 X115.393 Y98.036 E25.18619
G1 X115.695 Y97.671 E25.20195
G1 X115.907 Y97.477 E25.2115
G1 X116.292 Y97.218 E25.22694
G1 X116.56 Y97.09 E25.23681
G1 X117.016 Y96.951 E25.25267
G1 X117.513 Y96.896 E25.2693
G1 X117.62 Y96.891 E25.27286
G1 X117.815 Y96.91 E25.27938
G1 X118.307 Y97.006 E25.29605
G1 X118.775 Y97.202 E25.31293
G1 X119.19 Y97.477 E25.32949
G1 X119.563 Y97.847 E25.34696
G1 X119.833 Y98.253 E25.36318
G1 X119.957 Y98.514 E25.37279
G1 X120.102 Y98.987 E25.38924
G1 X120.162 Y99.64 E25.41105
G1 X120.038 Y100.267 E25.43231
G1 X119.841 Y100.727 E25.44896
G1 X119.569 Y101.137 E25.46532
G1 X119.224 Y101.494 E25.48183
G1 X118.799 Y101.783 E25.49893
G1 X118.202 Y102.038 E25.52052
G1 X117.422 Y102.119 E25.5466
G1 X116.786 Y101.993 E25.56817
G0 F6000 X116.902 Y101.608
G1 F1200 X116.51 Y101.442 E25.58233
G1 X116.078 Y101.157 E25.59954
G1 X115.715 Y100.726 E25.61828
G1 X115.511 Y100.341 E25.63277
G1 X115.354 Y99.815 E25.65103
G1 X115.354 Y99.169 E25.67252
G1 X115.513 Y98.655 E25.69041
G1 X115.709 Y98.289 E25.70422
G1 X116.056 Y97.86 E25.72257
G1 X116.59 Y97.499 E25.74401
G1 X117.122 Y97.341 E25.76247
G1 X117.62 Y97.291 E25.77912
G1 X117.737 Y97.302 E25.78302
G1 X118.189 Y97.392 E25.79835
G1 X118.581 Y97.554 E25.81246
G1 X118.935 Y97.787 E25.82656
G1 X119.253 Y98.102 E25.84144
G1 X119.548 Y98.547 E25.8592
G1 X119.707 Y99.066 E25.87725
G1 X119.76 Y99.614 E25.89557
G1 X119.654 Y100.146 E25.91361
G1 X119.489 Y100.537 E25.92772
